; generated by Slic3r 1.1.7 on 2015-01-07 at 16:51:24

; perimeters extrusion width = 0.40mm
; infill extrusion width = 0.42mm
; solid infill extrusion width = 0.42mm
; top infill extrusion width = 0.42mm

G21 ; set units to millimeters
M107
M104 S280 ; set temperature

M109 S280 ; wait for temperature to be reached
G90 ; use absolute coordinates
G92 E0
M82 ; use absolute distances for extrusion
G1 F1800.000 E-0.50000
G92 E0
G1 Z0.300 F3000.000
G1 X127.045 Y74.987 F3000.000
G1 E0.50000 F1800.000
G1 X127.128 Y74.887 E0.50630 F1080.000
G1 X128.189 Y73.867 E0.57792
G1 X130.735 Y71.917 E0.73389
G1 X132.760 Y70.866 E0.84486
G1 X134.698 Y70.566 E0.94022
G1 X154.932 Y70.492 E1.92438
G1 X157.180 Y70.881 E2.03535
G1 X158.905 Y71.814 E2.13071 F1080.000
G1 X161.465 Y73.745 E2.28668
G1 X162.532 Y74.757 E2.35822
G1 X162.616 Y74.856 E2.36452
G1 X163.759 Y76.831 E2.47550
G1 X164.157 Y79.077 E2.58647
G1 X163.662 Y81.578 E2.71044
G1 X151.933 Y110.037 E4.20757
G1 X150.710 Y111.963 E4.31854
G1 X148.901 Y113.353 E4.42951
G1 X146.026 Y114.094 E4.57388
G1 X144.899 Y114.116 E4.62874
G1 X143.922 Y114.101 E4.67628
G1 X141.682 Y113.667 E4.78725
G1 X139.726 Y112.492 E4.89822
G1 X137.985 Y110.088 E5.04259
G1 X126.049 Y81.715 E6.53971
G1 X125.544 Y79.490 E6.65068
G1 X125.831 Y77.227 E6.76165
G1 X127.017 Y75.040 E6.88264
G1 F1800.000 E6.38264
G92 E0
G1 X155.702 Y79.786 F3000.000
G1 E0.50000 F1800.000
G1 X156.193 Y79.800 E0.52391 F540.000
G1 X155.554 Y80.906 E0.58602
G1 X155.428 Y81.161 E0.59986
G1 X151.355 Y88.166 E0.99401
G1 X151.336 Y88.268 E0.99902
G1 X147.027 Y90.738 E1.24060
G1 X145.751 Y91.450 E1.31164
G1 X146.413 Y92.090 E1.35639
G1 X145.147 Y106.027 E2.03708
G1 X144.742 Y106.029 E2.05681
G1 X143.374 Y92.101 E2.73749
G1 X144.031 Y91.457 E2.78224
G1 X142.751 Y90.754 E2.85328
G1 X138.424 Y88.315 E3.09487
G1 X138.404 Y88.214 E3.09988
G1 X134.280 Y81.238 E3.49402
G1 X134.152 Y80.984 E3.50786
G1 X133.505 Y79.883 E3.56997
G1 X133.996 Y79.866 E3.59389
G1 X134.150 Y78.937 E3.63968
G1 X135.228 Y78.952 E3.69213
G1 X135.272 Y78.687 E3.70518
G1 X136.083 Y79.355 E3.75630
G1 X136.245 Y79.454 E3.76552
G1 X139.967 Y82.612 E4.00293
G1 X140.579 Y82.506 E4.03316
G1 X144.861 Y83.129 E4.24360
G1 X149.138 Y82.477 E4.45401
G1 X149.751 Y82.579 E4.48426
G1 X153.450 Y79.391 E4.72176
G1 X153.611 Y79.291 E4.73098
G1 X154.417 Y78.617 E4.78210
G1 X154.463 Y78.881 E4.79515
G1 X155.541 Y78.859 E4.84760
G1 X155.692 Y79.727 E4.89047
G1 X156.173 Y79.242 F3000.000
G1 X157.143 Y79.270 E4.93768 F378.000
G1 X156.046 Y81.169 E5.04436
G1 X155.920 Y81.425 E5.05824
G1 X151.884 Y88.363 E5.44863
G1 X151.836 Y88.623 E5.46147
G1 X146.678 Y91.571 E5.75043
G1 X146.992 Y91.875 E5.77168
G1 X145.596 Y107.245 E6.52232
G1 X144.949 Y107.260 E6.55380
G1 X144.302 Y107.250 E6.58529
G1 X142.794 Y91.890 E7.33593
G1 X143.106 Y91.584 E7.35717
G1 X137.926 Y88.674 E7.64613
G1 X137.876 Y88.414 E7.65898
G1 X133.790 Y81.505 E8.04936
G1 X133.662 Y81.251 E8.06324
G1 X132.551 Y79.359 E8.16993
G1 X133.521 Y79.325 E8.21714
G1 X133.679 Y78.373 E8.26407
G1 X134.757 Y78.388 E8.31652
G1 X134.881 Y77.642 E8.35327
G1 X136.406 Y78.900 E8.44943
G1 X136.572 Y79.000 E8.45886
G1 X140.128 Y82.019 E8.68574
G1 X140.571 Y81.942 E8.70761
G1 X144.859 Y82.566 E8.91834
G1 X149.141 Y81.912 E9.12904
G1 X149.585 Y81.986 E9.15091
G1 X153.120 Y78.940 E9.37788
G1 X153.285 Y78.838 E9.38731
G1 X154.801 Y77.570 E9.48346
G1 X154.930 Y78.314 E9.52022
G1 X156.008 Y78.292 E9.57267
G1 X156.163 Y79.183 E9.61668
G1 X156.188 Y79.642 F3000.000
G1 X155.183 Y79.250 F3000.000
G1 X155.227 Y79.294 E9.61972 F1080.000
G1 X154.396 Y79.267 E9.66019
G1 X155.449 Y80.321 E9.73267
G1 X155.161 Y80.836 E9.76140
G1 X153.886 Y79.562 E9.84906
G1 X153.433 Y79.912 E9.87694
G1 X154.873 Y81.353 E9.97601
G1 X154.577 Y81.861 E10.00462
G1 X153.001 Y80.284 E10.11306
G1 X152.569 Y80.657 E10.14079
G1 X154.282 Y82.369 E10.25859
G1 X153.986 Y82.878 E10.28720
G1 X152.137 Y81.029 E10.41437
G1 X151.705 Y81.401 E10.44211
G1 X153.690 Y83.386 E10.57865
G1 X153.395 Y83.895 E10.60726
G1 X151.273 Y81.773 E10.75317
G1 X150.841 Y82.146 E10.78090
G1 X153.099 Y84.403 E10.93617
G1 X152.803 Y84.912 E10.96478
G1 X150.410 Y82.518 E11.12943
G1 X149.978 Y82.890 E11.15716
G1 X152.508 Y85.420 E11.33117
G1 X152.212 Y85.929 E11.35978
G1 X149.151 Y82.868 E11.57030
G1 X148.449 Y82.970 E11.60481
G1 X151.916 Y86.437 E11.84330
G1 X151.620 Y86.945 E11.87190
G1 X147.751 Y83.076 E12.13804
G1 X147.054 Y83.183 E12.17237
G1 X151.325 Y87.454 E12.46616
G1 X151.029 Y87.962 E12.49476
G1 X146.356 Y83.289 E12.81621
G1 X145.658 Y83.395 E12.85054
G1 X150.543 Y88.280 E13.18650
G1 X150.031 Y88.573 E13.21516
G1 X144.960 Y83.502 E13.56396
G1 X144.054 Y83.399 E13.60835
G1 X149.520 Y88.866 E13.98438
G1 X149.009 Y89.159 E14.01303
G1 X143.112 Y83.262 E14.41864
G1 X142.171 Y83.125 E14.46490
G1 X148.498 Y89.452 E14.90008
G1 X147.987 Y89.745 E14.92874
G1 X141.230 Y82.988 E15.39350
G1 X140.370 Y82.932 E15.43545
G1 X147.476 Y90.038 E15.92426
G1 X146.965 Y90.331 E15.95292
G1 X138.529 Y81.895 E16.53317
G1 X135.991 Y83.378 F3000.000
G1 X143.146 Y90.533 E17.02536 F1080.000
G1 X144.322 Y91.709 F3000.000
G1 X145.917 Y93.304 E17.13508 F1080.000
G1 X145.984 Y92.567 E17.17108
G1 X134.827 Y81.410 E17.93852
G1 X134.343 Y80.121 F3000.000
G1 X145.418 Y91.197 E18.70032 F1080.000
G1 X145.934 Y90.909 E18.72907
G1 X134.457 Y79.432 E19.51851
G1 X135.164 Y79.335 E19.55323
G1 X146.450 Y90.621 E20.32952
G1 X143.916 Y92.107 F3000.000
G1 X145.850 Y94.041 E20.46256 F1080.000
G1 X145.783 Y94.779 E20.49856
G1 X143.831 Y92.827 E20.63283
G1 X143.919 Y93.718 E20.67640
G1 X145.716 Y95.516 E20.80004
G1 X145.650 Y96.253 E20.83604
G1 X144.007 Y94.610 E20.94905
G1 X144.094 Y95.502 E20.99263
G1 X145.583 Y96.990 E21.09502
G1 X145.516 Y97.727 E21.13102
G1 X144.182 Y96.393 E21.22278
G1 X144.269 Y97.285 E21.26636
G1 X145.449 Y98.465 E21.34749
G1 X145.382 Y99.202 E21.38349
G1 X144.357 Y98.177 E21.45400
G1 X144.444 Y99.068 E21.49758
G1 X145.315 Y99.939 E21.55746
G1 X144.574 Y100.002 E21.59363
G1 X144.532 Y99.960 E21.59653
G1 F1800.000 E21.09653
G92 E0
G1 X141.310 Y89.501 F3000.000
G1 E0.50000 F1800.000
G1 X137.154 Y85.345 E0.78585 F1080.000
G1 X138.318 Y87.313 F3000.000
G1 X139.467 Y88.462 E0.86485 F1080.000
G1 X136.562 Y84.818 F3000.000
G1 X146.218 Y92.652 F3000.000
G1 X144.924 Y100.385 F3000.000
G1 X144.931 Y102.324 E1.00634 F360.000
G1 X144.931 Y102.324 F3000.000
G1 X144.936 Y103.769 E1.04688 F360.000
M106 S255
G1 F1800.000 E0.54688
G92 E0
G1 Z0.600 F3000.000
G1 X155.796 Y79.607 F3000.000
G1 E0.50000 F1800.000
G1 X156.500 Y79.627 E0.52461 F894.606
G1 X155.926 Y80.621 E0.56470
G1 X155.547 Y81.389 E0.59461
G1 X151.860 Y87.728 E0.85070
G1 X151.699 Y88.592 E0.88141
G1 X147.492 Y91.005 E1.05076
G1 X145.972 Y91.850 E1.11149
G1 X146.729 Y92.581 E1.14827
G1 X145.407 Y107.139 E1.65876
G1 X144.949 Y107.148 E1.67476
G1 X144.491 Y107.142 E1.69076
G1 X143.062 Y92.595 E2.20125
G1 X143.814 Y91.857 E2.23802
G1 X142.287 Y91.024 E2.29876
G1 X138.063 Y88.642 E2.46811
G1 X137.896 Y87.779 E2.49881
G1 X134.163 Y81.467 E2.75491
G1 X133.778 Y80.702 E2.78482
G1 X133.196 Y79.712 E2.82491
G1 X133.901 Y79.687 E2.84952
G1 X134.048 Y78.797 E2.88104
G1 X135.021 Y78.810 E2.91500
G1 X135.107 Y78.292 E2.93334
G1 X135.959 Y78.994 E2.97190
G1 X136.458 Y79.296 E2.99228
G1 X139.783 Y82.118 E3.14458
G1 X141.020 Y81.903 E3.18845
G1 X144.858 Y82.461 E3.32390
G1 X148.692 Y81.877 E3.45934
G1 X149.931 Y82.083 E3.50321
G1 X153.236 Y79.235 E3.65558
G1 X153.733 Y78.929 E3.67595
G1 X154.580 Y78.221 E3.71451
G1 X154.670 Y78.738 E3.73284
G1 X155.642 Y78.718 E3.76681
G1 X155.786 Y79.548 E3.79624
G1 X156.134 Y79.217 F3000.000
G1 X157.182 Y79.246 E3.83286 F626.224
G1 X156.279 Y80.810 E3.89593
G1 X155.899 Y81.578 E3.92586
G1 X152.241 Y87.869 E4.18002
G1 X152.058 Y88.847 E4.21476
G1 X146.639 Y91.937 E4.43263
G1 X147.145 Y92.427 E4.45722
G1 X145.773 Y107.530 E4.98686
G1 X144.950 Y107.548 E5.01559
G1 X144.127 Y107.536 E5.04433
G1 X142.645 Y92.443 E5.57396
G1 X143.148 Y91.950 E5.59856
G1 X137.706 Y88.900 E5.81642
G1 X137.516 Y87.923 E5.85117
G1 X133.812 Y81.659 E6.10532
G1 X133.427 Y80.893 E6.13526
G1 X132.512 Y79.336 E6.19832
G1 X133.560 Y79.299 E6.23495
G1 X133.684 Y78.549 E6.26148
G1 X133.824 Y78.394 E6.26880
G1 X134.682 Y78.405 E6.29878
G1 X134.825 Y77.542 E6.32935
G1 X136.190 Y78.667 E6.39112
G1 X136.692 Y78.971 E6.41160
G1 X139.899 Y81.692 E6.55848
G1 X141.005 Y81.499 E6.59769
M106 S255
G1 X144.857 Y82.057 E6.74004 F3600.000
G1 X148.705 Y81.473 E6.88237
M106 S255
G1 X149.812 Y81.658 E6.92158 F626.224
G1 X152.999 Y78.911 E7.06851
G1 X153.499 Y78.604 E7.08899
G1 X154.856 Y77.469 E7.15077
G1 X155.005 Y78.331 E7.18133
G1 X155.863 Y78.313 E7.21131
G1 X156.005 Y78.468 E7.21863
G1 X156.124 Y79.158 E7.24307
G1 X148.512 Y81.824 F3000.000
G1 X150.032 Y82.358 F3000.000
G1 X141.900 Y90.490 E7.66366 F1789.212
G1 X141.521 Y90.276 E7.67960
G1 X149.507 Y82.290 E8.09263
G1 X148.998 Y82.206 E8.11150
G1 X141.141 Y90.062 E8.51785
G1 X140.761 Y89.848 E8.53379
G1 X148.413 Y82.197 E8.92953
G1 X147.712 Y82.303 E8.95545
G1 X140.382 Y89.634 E9.33460
G1 X140.002 Y89.420 E9.35054
G1 X147.012 Y82.410 E9.71309
G1 X146.311 Y82.517 E9.73900
G1 X139.622 Y89.206 E10.08496
G1 X139.243 Y88.992 E10.10090
G1 X145.611 Y82.624 E10.43025
G1 X144.910 Y82.731 E10.45617
G1 X138.863 Y88.778 E10.76893
G1 X138.483 Y88.564 E10.78487
G1 X144.379 Y82.669 E11.08978
G1 X143.860 Y82.593 E11.10893
G1 X138.256 Y88.197 E11.39877
G1 X138.160 Y87.700 E11.41729
G1 X143.342 Y82.518 E11.68533
G1 X142.824 Y82.442 E11.70448
G1 X137.944 Y87.322 E11.95686
G1 X137.723 Y86.949 E11.97271
G1 X142.305 Y82.367 E12.20970
G1 X141.787 Y82.291 E12.22885
G1 X137.503 Y86.576 E12.45044
G1 X137.282 Y86.203 E12.46629
G1 X141.269 Y82.216 E12.67249
G1 X140.645 Y82.247 E12.69534
G1 X137.061 Y85.830 E12.88067
G1 X136.841 Y85.457 E12.89652
G1 X139.926 Y82.372 E13.05606
G1 X139.481 Y82.222 E13.07320
G1 X136.620 Y85.083 E13.22119
G1 X136.400 Y84.710 E13.23704
G1 X139.160 Y81.950 E13.37982
G1 X138.839 Y81.677 E13.39523
G1 X136.179 Y84.337 E13.53281
G1 X135.958 Y83.964 E13.54867
G1 X138.518 Y81.405 E13.68105
G1 X138.197 Y81.132 E13.69646
G1 X135.738 Y83.591 E13.82365
G1 X135.517 Y83.218 E13.83950
G1 X137.876 Y80.859 E13.96149
G1 X137.555 Y80.587 E13.97689
G1 X135.296 Y82.845 E14.09368
G1 X135.076 Y82.472 E14.10954
G1 X137.233 Y80.314 E14.22113
G1 X136.912 Y80.042 E14.23653
G1 X134.855 Y82.099 E14.34293
G1 X134.635 Y81.726 E14.35878
G1 X136.591 Y79.769 E14.45997
G1 X136.266 Y79.501 E14.47540
G1 X134.414 Y81.353 E14.57118
G1 X134.214 Y80.959 E14.58733
G1 X135.896 Y79.277 E14.67431
G1 X135.559 Y79.020 E14.68981
G1 X134.015 Y80.564 E14.76965
G1 X133.795 Y80.190 E14.78551
G1 X134.903 Y79.083 E14.84278
G1 X134.317 Y79.075 E14.86420
G1 X134.273 Y79.119 E14.86647
G1 X142.280 Y90.705 F3000.000
G1 X153.733 Y79.251 E15.45884 F1789.212
G1 X154.563 Y79.015 E15.49040
G1 X142.662 Y90.916 E16.10591
G1 X143.046 Y91.126 E16.12191
G1 X155.170 Y79.002 E16.74894
G1 X155.465 Y79.301 E16.76429
G1 X143.430 Y91.335 E17.38671
G1 X143.814 Y91.545 E17.40271
G1 X155.552 Y79.807 E18.00980
G1 X155.989 Y79.964 E18.02677
G1 X144.198 Y91.755 E18.63659
G1 X145.734 Y92.001 F3000.000
G1 X143.498 Y94.236 E18.75220 F1789.212
G1 X143.552 Y94.776 E18.77207
G1 X146.036 Y92.292 E18.90055
G1 X146.338 Y92.584 E18.91590
G1 X143.605 Y95.317 E19.05725
G1 X143.658 Y95.858 E19.07712
G1 X146.406 Y93.109 E19.21926
G1 X146.347 Y93.762 E19.24324
G1 X143.711 Y96.398 E19.37957
G1 X143.764 Y96.939 E19.39943
G1 X146.287 Y94.415 E19.52994
G1 X146.228 Y95.069 E19.55393
G1 X143.817 Y97.480 E19.67862
G1 X143.870 Y98.020 E19.69849
G1 X146.169 Y95.722 E19.81737
G1 X146.109 Y96.375 E19.84135
G1 X143.923 Y98.561 E19.95441
G1 X143.976 Y99.101 E19.97428
G1 X146.050 Y97.028 E20.08153
G1 X145.991 Y97.681 E20.10551
G1 X144.029 Y99.642 E20.20695
G1 X144.083 Y100.183 E20.22681
G1 X145.931 Y98.334 E20.32243
G1 X145.872 Y98.987 E20.34641
G1 X144.136 Y100.723 E20.43622
G1 X144.189 Y101.264 E20.45608
G1 X145.813 Y99.640 E20.54007
G1 X145.753 Y100.293 E20.56405
G1 X144.242 Y101.804 E20.64222
G1 X144.295 Y102.345 E20.66209
G1 X145.694 Y100.946 E20.73445
G1 X145.635 Y101.599 E20.75843
G1 X144.348 Y102.886 E20.82497
G1 X144.401 Y103.426 E20.84484
G1 X145.575 Y102.252 E20.90556
G1 X145.516 Y102.905 E20.92954
G1 X144.454 Y103.967 E20.98445
G1 X144.507 Y104.508 E21.00432
G1 X145.457 Y103.558 E21.05341
G1 X145.397 Y104.211 E21.07740
G1 X144.561 Y105.048 E21.12067
G1 X144.614 Y105.589 E21.14054
G1 X145.338 Y104.864 E21.17800
G1 X145.279 Y105.518 E21.20199
G1 X144.667 Y106.129 E21.23363
G1 X145.219 Y106.171 E21.25390
G1 X144.720 Y106.670 E21.27973
G1 X145.118 Y106.866 E21.29595
G1 X145.160 Y106.824 E21.29813
G1 X143.445 Y93.695 F3000.000
G1 X154.504 Y82.637 E21.87007 F1789.212
G1 X155.322 Y81.225 F3000.000
G1 X143.392 Y93.155 E22.48706 F1789.212
G1 X146.482 Y91.253 F3000.000
G1 X153.679 Y84.056 E22.85928 F1789.212
G1 X152.853 Y85.475 F3000.000
G1 X147.838 Y90.490 E23.11870 F1789.212
G1 X149.230 Y89.692 F3000.000
G1 X152.028 Y86.893 E23.26346 F1789.212
G1 X151.534 Y87.982 F3000.000
G1 X150.621 Y88.894 E23.31065 F1789.212
G1 F1800.000 E22.81065
G92 E0
G1 Z0.900 F3000.000
G1 X155.672 Y79.679 F3000.000
G1 E0.50000 F1800.000
G1 X156.369 Y79.699 E0.52433 F645.981
G1 X156.071 Y80.215 E0.54515
G1 X155.438 Y81.495 E0.59501
G1 X152.121 Y87.199 E0.82544
G1 X151.831 Y88.753 E0.88066
G1 X147.831 Y91.047 E1.04168
G1 X145.767 Y92.195 E1.12417
G1 X146.779 Y93.172 E1.17328
G1 X145.492 Y107.327 E1.66964
G1 X144.949 Y107.336 E1.68858
G1 X144.407 Y107.331 E1.70752
G1 X143.017 Y93.186 E2.20388
G1 X144.021 Y92.201 E2.25299
G1 X141.949 Y91.068 E2.33547
G1 X137.932 Y88.804 E2.49650
G1 X137.631 Y87.252 E2.55172
G1 X134.272 Y81.573 E2.78214
G1 X133.630 Y80.297 E2.83201
G1 X133.328 Y79.783 E2.85282
G1 X134.025 Y79.758 E2.87715
G1 X134.145 Y79.030 E2.90294
G1 X134.246 Y78.918 E2.90820
G1 X135.031 Y78.929 E2.93561
G1 X135.122 Y78.379 E2.95506
G1 X135.685 Y78.843 E2.98054
G1 X136.520 Y79.348 E3.01461
G1 X139.524 Y81.898 E3.15224
G1 X141.465 Y81.560 E3.22104
G1 X144.857 Y82.054 E3.34075
G1 X148.245 Y81.537 E3.46044
G1 X150.189 Y81.861 E3.52925
G1 X153.175 Y79.287 E3.66693
G1 X154.006 Y78.776 E3.70099
G1 X154.565 Y78.308 E3.72647
G1 X154.660 Y78.857 E3.74592
G1 X155.445 Y78.840 E3.77333
G1 X155.546 Y78.952 E3.77859
G1 X155.662 Y79.620 E3.80228
G1 X156.011 Y79.289 F3000.000
G1 X156.604 Y79.305 E3.82302 F600.000
G1 X156.874 Y79.625 E3.83762
G1 X156.424 Y80.404 E3.86902
G1 X155.791 Y81.684 E3.91891
G1 X152.502 Y87.340 E4.14740
G1 X152.190 Y89.008 E4.20665
G1 X148.028 Y91.395 E4.37422
G1 X146.434 Y92.283 E4.43795
G1 X147.194 Y93.018 E4.47488
G1 X145.858 Y107.718 E4.99038
G1 X144.951 Y107.736 E5.02206
G1 X144.044 Y107.725 E5.05374
G1 X142.600 Y93.035 E5.56924
G1 X143.355 Y92.294 E5.60618
G1 X141.754 Y91.418 E5.66991
G1 X137.575 Y89.062 E5.83747
G1 X137.251 Y87.396 E5.89673
G1 X133.921 Y81.764 E6.12521
G1 X133.279 Y80.488 E6.17510
G1 X132.823 Y79.713 E6.20650
G1 X133.090 Y79.391 E6.22110
G1 X133.684 Y79.370 E6.24184
G1 X133.770 Y78.849 E6.26028
G1 X134.070 Y78.515 E6.27595
G1 X134.692 Y78.524 E6.29769
G1 X134.789 Y77.941 E6.31832
G1 X134.978 Y77.742 E6.32790
G1 X135.917 Y78.516 E6.37041
G1 X136.754 Y79.022 E6.40458
G1 X139.640 Y81.472 E6.53678
G1 X141.450 Y81.157 E6.60092
M106 S255
G1 X144.856 Y81.649 E6.72679 F3600.000
G1 X148.258 Y81.134 E6.85263
M106 S255
G1 X150.069 Y81.436 E6.91677 F600.000
G1 X152.938 Y78.963 E7.04902
G1 X153.771 Y78.451 E7.08319
G1 X154.705 Y77.670 E7.12569
G1 X154.895 Y77.868 E7.13528
G1 X154.996 Y78.450 E7.15590
G1 X155.618 Y78.437 E7.17765
G1 X155.921 Y78.768 E7.19332
G1 X156.001 Y79.230 E7.20967
G1 F1800.000 E6.70967
G92 E0
G1 X148.054 Y81.478 F3000.000
G1 X154.266 Y78.916 F3000.000
G1 E0.50000 F1800.000
G1 X155.699 Y80.349 E0.57410 F861.308
G1 X154.666 Y82.278 E0.65412
G1 X152.564 Y80.176 E0.76283
G1 X150.973 Y81.547 E0.83964
G1 X153.577 Y84.151 E0.97429
G1 X152.488 Y86.023 E1.05352
G1 X149.396 Y82.932 E1.21341
G1 X146.826 Y83.324 E1.30848
G1 X151.663 Y88.160 E1.55862
G1 X150.017 Y89.477 E1.63569
G1 X144.045 Y83.504 E1.94458
G1 X140.578 Y83.000 E2.07269
