; generated by Slic3r 1.1.7 on 2015-01-07 at 11:07:57

; perimeters extrusion width = 0.40mm
; infill extrusion width = 0.42mm
; solid infill extrusion width = 0.42mm
; top infill extrusion width = 0.42mm

G21 ; set units to millimeters
M107
M104 S280 ; set temperature

M109 S280 ; wait for temperature to be reached
G90 ; use absolute coordinates
G92 E0
M82 ; use absolute distances for extrusion
G1 F1800.000 E-0.50000
G92 E0
G1 Z0.300 F3000.000
G1 X120.813 Y83.640 F3000.000
G1 E0.50000 F1800.000
G1 X121.573 Y82.803 E0.55501 F1080.000
G1 X131.239 Y73.816 E1.19693
G1 X132.490 Y72.910 E1.27208
G1 X133.181 Y72.524 E1.31054
G1 X135.336 Y71.775 E1.42151
G1 X136.592 Y71.695 E1.48275
G1 X150.014 Y72.134 E2.13589
G1 X152.512 Y72.717 E2.26067 F1080.000
G1 X152.611 Y72.762 E2.26594
G1 X154.058 Y73.663 E2.34887
G1 X155.275 Y74.730 E2.42759
G1 X164.302 Y84.291 E3.06709
G1 X165.573 Y86.239 E3.18023
G1 X165.961 Y87.372 E3.23849
G1 X166.101 Y87.947 E3.26725
G1 X166.283 Y89.746 E3.35520
G1 X165.780 Y103.154 E4.00781
G1 X165.077 Y105.871 E4.14430
G1 X164.416 Y107.068 E4.21079
G1 X162.587 Y108.899 E4.33666
G1 X161.273 Y109.579 E4.40865
G1 X139.602 Y117.827 E5.53641
G1 X137.582 Y118.477 E5.63961
G1 X136.237 Y118.759 E5.70648
G1 X136.092 Y118.774 E5.71355
G1 X134.883 Y118.785 E5.77235
G1 X133.773 Y118.612 E5.82699
G1 X133.158 Y118.461 E5.85780
G1 X130.496 Y117.110 E6.00299
G1 X129.908 Y116.552 E6.04241
G1 X120.661 Y106.604 E6.70299
G1 X119.220 Y104.143 E6.84172
G1 X119.017 Y103.510 E6.87406
G1 X118.708 Y101.265 E6.98425
G1 X119.199 Y87.953 E7.63214
G1 X119.648 Y85.799 E7.73919
G1 X119.826 Y85.344 E7.76293
G1 X120.783 Y83.692 E7.85580
G1 F1800.000 E7.35580
G92 E0
G1 X158.352 Y102.829 F3000.000
G1 E0.50000 F1800.000
G1 X157.877 Y102.599 E0.52563 F540.000
G1 X156.590 Y101.846 E0.59820
G1 X155.917 Y101.218 E0.64297
G1 X154.355 Y99.680 E0.74959
G1 X152.904 Y98.911 E0.82944
G1 X152.407 Y98.893 E0.85364
G1 X152.325 Y98.926 E0.85791
G1 X151.391 Y98.979 E0.90344
G1 X150.430 Y99.656 E0.96063
G1 X150.161 Y100.020 E0.98264
G1 X149.879 Y101.812 E1.07084
G1 X149.834 Y102.154 E1.08765
G1 X150.403 Y103.883 E1.17616
G1 X150.466 Y104.147 E1.18936
G1 X150.487 Y105.149 E1.23811
G1 X149.609 Y105.091 E1.28090
G1 X149.125 Y105.140 E1.30458
G1 X149.033 Y105.254 E1.31172
G1 X148.109 Y105.284 E1.35667
G1 X147.800 Y105.219 E1.37204
G1 X147.206 Y105.337 E1.40149
G1 X146.957 Y105.090 E1.41851
G1 X146.850 Y104.872 E1.43038
G1 X146.647 Y104.691 E1.44356
G1 X146.530 Y104.619 E1.45027
G1 X145.510 Y104.022 E1.50775
G1 X145.017 Y104.019 E1.53172
G1 X143.670 Y104.710 E1.60535
G1 X142.641 Y105.905 E1.68204
G1 X142.518 Y106.010 E1.68992
G1 X140.889 Y108.118 E1.81949
G1 X140.662 Y108.337 E1.83482
G1 X137.618 Y110.606 E2.01950
G1 X137.470 Y110.697 E2.02793
G1 X137.278 Y110.786 E2.03821
G1 X135.329 Y111.414 E2.13780
G1 X135.384 Y110.816 E2.16699
G1 X135.409 Y110.735 E2.17111
G1 X136.242 Y109.426 E2.24659
G1 X136.523 Y109.117 E2.26690
G1 X138.356 Y107.287 E2.39289
G1 X139.092 Y105.865 E2.47074
G1 X139.029 Y104.410 E2.54158
G1 X138.854 Y104.223 E2.55406
G1 X138.472 Y103.457 E2.59570
G1 X137.069 Y102.896 E2.66915
G1 X136.913 Y102.811 E2.67783
G1 X136.439 Y102.775 E2.70093
G1 X133.140 Y103.235 E2.86294
G1 X132.731 Y103.276 E2.88293
G1 X132.305 Y103.252 E2.90370
G1 X129.191 Y102.930 E3.05596
G1 X128.728 Y102.802 E3.07932
G1 X127.298 Y102.329 E3.15255
G1 X126.408 Y101.764 E3.20383
G1 X126.394 Y101.520 E3.21575
G1 X126.673 Y101.262 E3.23426
G1 X128.007 Y100.917 E3.30125
G1 X131.871 Y100.840 E3.48922
G1 X132.305 Y100.583 E3.51377
G1 X133.477 Y99.612 E3.58779
G1 X133.750 Y99.299 E3.60800
G1 X133.839 Y98.989 E3.62367
G1 X133.952 Y98.042 E3.67004
G1 X133.856 Y97.678 E3.68836
G1 X133.095 Y96.438 E3.75914
G1 X132.870 Y96.196 E3.77519
G1 X130.606 Y94.480 E3.91340
G1 X130.232 Y94.162 E3.93728
G1 X128.022 Y91.624 E4.10096
G1 X127.898 Y91.428 E4.11222
G1 X126.924 Y89.631 E4.21162
G1 X126.892 Y89.546 E4.21605
G1 X126.624 Y88.252 E4.28030
G1 X127.545 Y88.543 E4.32729
G1 X128.696 Y89.358 E4.39587
G1 X130.989 Y91.578 E4.55111
G1 X131.416 Y91.779 E4.57405
G1 X132.983 Y92.107 E4.65194
G1 X133.416 Y92.015 E4.67346
G1 X134.297 Y91.550 E4.72191
G1 X134.613 Y91.299 E4.74156
G1 X135.070 Y90.107 E4.80361
G1 X135.118 Y89.944 E4.81191
G1 X135.153 Y89.686 E4.82453
G1 X135.081 Y88.262 E4.89392
G1 X134.732 Y85.775 E5.01603
G1 X134.899 Y83.299 E5.13677
G1 X134.962 Y82.655 E5.16824
G1 X135.549 Y80.488 E5.27743
G1 X136.388 Y79.057 E5.35813
G1 X136.933 Y80.321 E5.42508
G1 X137.085 Y81.351 E5.47571
G1 X137.113 Y81.924 E5.50362
G1 X137.124 Y84.691 E5.63823
G1 X137.342 Y85.141 E5.66253
G1 X138.277 Y86.451 E5.74082
G1 X138.710 Y86.684 E5.76475
G1 X139.786 Y86.922 E5.81837
G1 X140.304 Y86.905 E5.84357
G1 X141.796 Y85.739 E5.93566
G1 X141.903 Y85.675 E5.94176
G1 X142.081 Y85.484 E5.95445
G1 X143.731 Y83.296 E6.08775
G1 X143.910 Y83.090 E6.10100
G1 X147.036 Y80.499 E6.29847
G1 X147.196 Y80.418 E6.30718
G1 X149.658 Y79.600 E6.43336
G1 X149.469 Y80.554 E6.48066
G1 X148.909 Y81.335 E6.52740
G1 X146.442 Y83.931 E6.70160
G1 X146.229 Y84.281 E6.72150
G1 X145.943 Y85.936 E6.80323
G1 X145.890 Y86.367 E6.82435
G1 X146.124 Y86.650 E6.84220
G1 X146.534 Y87.473 E6.88691
G1 X147.333 Y87.866 E6.93023
G1 X147.543 Y88.004 E6.94244
G1 X149.317 Y88.140 E7.02900
G1 X152.251 Y87.706 E7.17324
G1 X155.055 Y87.917 E7.31001
G1 X156.758 Y88.271 E7.39459
G1 X157.161 Y88.400 E7.41515
G1 X158.937 Y89.404 E7.51441
G1 X157.174 Y90.021 E7.60526
G1 X156.603 Y90.047 E7.63306
G1 X153.391 Y90.096 E7.78929
G1 X151.950 Y90.868 E7.86878
G1 X151.757 Y91.156 E7.88564
G1 X151.134 Y91.977 E7.93577
G1 X151.060 Y92.434 E7.95830
G1 X151.281 Y93.513 E8.01186
G1 X151.409 Y93.844 E8.02911
G1 X152.632 Y95.170 E8.11686
G1 X154.294 Y96.362 E8.21636
G1 X154.717 Y96.739 E8.24390
G1 X156.881 Y99.210 E8.40364
G1 X157.077 Y99.455 E8.41892
G1 X158.176 Y101.587 E8.53556
G1 X158.344 Y102.770 E8.59366
G1 F1800.000 E8.09366
G92 E0
G1 X151.054 Y105.889 F3000.000
G1 E0.50000 F1800.000
G1 X150.740 Y105.847 E0.51545 F378.000
G1 X150.483 Y105.707 E0.52966
G1 X149.619 Y105.650 E0.57180
G1 X149.412 Y105.671 E0.58190
G1 X149.306 Y105.802 E0.59011
G1 X148.060 Y105.843 E0.65076
G1 X147.796 Y105.788 E0.66386
G1 X147.450 Y105.856 E0.68101
G1 X147.109 Y106.026 E0.69955
G1 X146.499 Y105.420 E0.74137
G1 X146.398 Y105.215 E0.75250
G1 X146.313 Y105.140 E0.75800
G1 X145.357 Y104.578 E0.81193
G1 X145.151 Y104.577 E0.82196
G1 X144.019 Y105.159 E0.88388
G1 X143.035 Y106.302 E0.95725
G1 X142.922 Y106.397 E0.96440
G1 X141.322 Y108.469 E1.09173
G1 X141.217 Y108.591 E1.09955
G1 X141.012 Y108.770 E1.11281
G1 X137.930 Y111.068 E1.29978
G1 X137.734 Y111.188 E1.31096
G1 X137.482 Y111.306 E1.32446
G1 X135.511 Y111.940 E1.42521
G1 X135.380 Y111.945 E1.43156
G1 X134.913 Y111.831 E1.45497
G1 X134.758 Y111.548 E1.47066
G1 X134.831 Y110.745 E1.50990
G1 X134.851 Y110.623 E1.51590
G1 X134.913 Y110.476 E1.52368
G1 X135.802 Y109.080 E1.60415
G1 X136.116 Y108.736 E1.62680
G1 X137.896 Y106.959 E1.74912
G1 X138.528 Y105.740 E1.81592
G1 X138.481 Y104.639 E1.86951
G1 X138.392 Y104.544 E1.87588
G1 X138.068 Y103.895 E1.91114
G1 X136.752 Y103.357 E1.98029
G1 X136.457 Y103.335 E1.99468
G1 X133.206 Y103.788 E2.15430
G1 X132.744 Y103.835 E2.17692
G1 X132.260 Y103.808 E2.20046
G1 X129.087 Y103.479 E2.35563
G1 X128.566 Y103.335 E2.38192
G1 X127.058 Y102.837 E2.45917
G1 X125.869 Y102.082 E2.52768
G1 X125.822 Y101.289 E2.56631
G1 X126.346 Y100.806 E2.60098
G1 X126.492 Y100.733 E2.60889
G1 X127.931 Y100.363 E2.68117
G1 X131.714 Y100.286 E2.86519
G1 X131.983 Y100.126 E2.88043
G1 X133.086 Y99.212 E2.95014
G1 X133.249 Y99.026 E2.96213
G1 X133.291 Y98.879 E2.96958
G1 X133.386 Y98.081 E3.00863
G1 X133.338 Y97.899 E3.01778
G1 X132.649 Y96.776 E3.08187
G1 X132.495 Y96.611 E3.09287
G1 X130.257 Y94.914 E3.22948
G1 X129.840 Y94.560 E3.25610
G1 X127.569 Y91.951 E3.42432
G1 X127.417 Y91.709 E3.43819
G1 X126.415 Y89.862 E3.54043
G1 X126.355 Y89.699 E3.54883
G1 X126.053 Y88.246 E3.62103
G1 X126.203 Y87.866 E3.64087
G1 X126.661 Y87.715 E3.66438
G1 X126.795 Y87.722 E3.67091
G1 X127.774 Y88.032 E3.72084
G1 X127.964 Y88.145 E3.73158
G1 X129.050 Y88.926 E3.79664
G1 X131.311 Y91.114 E3.94967
G1 X131.594 Y91.247 E3.96489
G1 X132.982 Y91.538 E4.03386
G1 X133.224 Y91.486 E4.04590
G1 X133.991 Y91.082 E4.08807
G1 X134.147 Y90.957 E4.09779
G1 X134.572 Y89.827 E4.15653
G1 X134.594 Y89.663 E4.16455
G1 X134.526 Y88.308 E4.23053
G1 X134.172 Y85.797 E4.35390
G1 X134.380 Y82.822 E4.49895
G1 X134.414 Y82.548 E4.51238
G1 X135.021 Y80.305 E4.62536
G1 X135.083 Y80.160 E4.63303
G1 X135.843 Y78.891 E4.70499
G1 X136.389 Y78.586 E4.73540
G1 X136.914 Y78.899 E4.76513
G1 X137.473 Y80.167 E4.83254
G1 X137.640 Y81.296 E4.88802
G1 X137.653 Y81.543 E4.90006
G1 X137.670 Y81.910 E4.91792
G1 X137.680 Y84.562 E5.04694
G1 X137.822 Y84.856 E5.06279
G1 X138.655 Y86.022 E5.13248
G1 X138.906 Y86.157 E5.14635
G1 X139.838 Y86.363 E5.19280
G1 X140.104 Y86.355 E5.20574
G1 X141.550 Y85.237 E5.29461
G1 X141.654 Y85.125 E5.30202
G1 X143.298 Y82.945 E5.43487
G1 X143.519 Y82.690 E5.45127
G1 X146.730 Y80.030 E5.65407
G1 X146.981 Y79.903 E5.66775
G1 X149.560 Y79.045 E5.79996
G1 X149.756 Y79.003 E5.80970
G1 X150.262 Y79.418 E5.84150
G1 X150.001 Y80.732 E5.90666
G1 X149.974 Y80.790 E5.90974
G1 X149.339 Y81.690 E5.96332
G1 X146.884 Y84.276 E6.13675
G1 X146.760 Y84.479 E6.14833
G1 X146.472 Y86.197 E6.23307
G1 X146.594 Y86.344 E6.24235
G1 X146.948 Y87.056 E6.28102
G1 X147.611 Y87.381 E6.31690
G1 X147.737 Y87.465 E6.32427
G1 X149.298 Y87.579 E6.40038
G1 X152.034 Y87.163 E6.53501
G1 X152.250 Y87.148 E6.54553
G1 X155.134 Y87.365 E6.68618
G1 X156.900 Y87.731 E6.77391
G1 X157.385 Y87.886 E6.79868
G1 X159.184 Y88.904 E6.89920
G1 X159.297 Y88.989 E6.90609
G1 X159.407 Y89.443 E6.92880
G1 X158.965 Y89.967 E6.96218
G1 X158.775 Y90.051 E6.97228
G1 X157.280 Y90.573 E7.04927
G1 X156.620 Y90.604 E7.08144
G1 X153.538 Y90.651 E7.23135
G1 X152.335 Y91.294 E7.29768
G1 X151.662 Y92.203 E7.35270
G1 X151.626 Y92.423 E7.36353
G1 X151.817 Y93.355 E7.40983
G1 X151.889 Y93.541 E7.41951
G1 X153.004 Y94.750 E7.49951
G1 X154.642 Y95.926 E7.59756
G1 X155.114 Y96.347 E7.62835
G1 X157.308 Y98.852 E7.79031
G1 X157.552 Y99.157 E7.80930
G1 X158.714 Y101.430 E7.93345
G1 X158.917 Y102.856 E8.00353
G1 X158.756 Y103.175 E8.02088
G1 X157.931 Y103.244 E8.06116
G1 X157.615 Y103.091 E8.07825
G1 X156.255 Y102.295 E8.15489
G1 X155.531 Y101.620 E8.20302
G1 X154.023 Y100.136 E8.30593
G1 X152.751 Y99.463 E8.37596
G1 X152.506 Y99.454 E8.38788
G1 X152.449 Y99.477 E8.39084
G1 X151.581 Y99.526 E8.43312
G1 X150.824 Y100.060 E8.47817
G1 X150.690 Y100.242 E8.48917
G1 X150.403 Y102.101 E8.58067
G1 X150.940 Y103.731 E8.66416
G1 X151.012 Y104.016 E8.67845
G1 X151.031 Y104.198 E8.68733
G1 X151.054 Y105.829 E8.76670
G1 X150.794 Y105.708 F3000.000
G1 F1800.000 E8.26670
G92 E0
G1 X156.905 Y99.960 F3000.000
G1 E0.50000 F1800.000
G1 X152.471 Y95.526 E0.80500 F1080.000
G1 X152.058 Y95.113 F3000.000
G1 X142.505 Y85.560 E1.46214 F1080.000
G1 X142.132 Y85.986 E1.48967
G1 X157.755 Y101.609 E2.56429
G1 X156.972 Y101.625 E2.60237
G1 X141.671 Y86.324 E3.65484
G1 X141.223 Y86.674 E3.68251
G1 X153.163 Y98.614 E4.50376
G1 X152.280 Y98.530 E4.54687
G1 X140.775 Y87.025 E5.33825
G1 X140.243 Y87.291 E5.36719
G1 X151.538 Y98.586 E6.14407
G1 X150.963 Y98.810 E6.17405
G1 X139.378 Y87.225 E6.97093
G1 X138.200 Y86.846 E7.03112
G1 X150.495 Y99.141 E7.87680
G1 X150.063 Y99.507 E7.90437
G1 X135.193 Y84.638 E8.92713
G1 X135.244 Y83.890 E8.96360
G1 X137.804 Y86.450 E9.13971
G1 X136.739 Y84.586 F3000.000
G1 X135.299 Y83.147 E9.23875 F1080.000
G1 X135.412 Y82.461 E9.27255
G1 X136.736 Y83.785 E9.36362
G1 X136.733 Y82.983 E9.40262
G1 X135.582 Y81.832 E9.48175
G1 X135.753 Y81.204 E9.51342
G1 X136.730 Y82.181 E9.58063
G1 X136.697 Y81.349 E9.62110
G1 X135.935 Y80.588 E9.67349
G1 X136.231 Y80.084 E9.70187
G1 X136.551 Y80.404 E9.72388
G1 X135.143 Y85.386 F3000.000
G1 X149.773 Y100.016 E10.73018 F1080.000
G1 X149.664 Y100.706 E10.76416
G1 X135.183 Y86.224 E11.76026
G1 X135.313 Y87.154 E11.80589
G1 X149.556 Y101.396 E12.78556
G1 X149.455 Y102.094 E12.81984
G1 X135.444 Y88.083 E13.78358
G1 X135.500 Y88.937 E13.82523
G1 X149.780 Y103.218 E14.80751
G1 X150.086 Y104.322 E14.86322
G1 X135.530 Y89.766 E15.86443
G1 X135.368 Y90.403 E15.89639
G1 X149.676 Y104.711 E16.88057
G1 X148.939 Y104.772 E16.91656
G1 X135.146 Y90.980 E17.86525
G1 X134.916 Y91.548 E17.89507
G1 X148.263 Y104.895 E18.81312
G1 X147.464 Y104.895 E18.85200
G1 X134.465 Y91.896 E19.74611
G1 X133.942 Y92.171 E19.77486
G1 X145.408 Y103.638 E20.56356
G1 X144.714 Y103.743 E20.59767
G1 X133.385 Y92.414 E21.37693
G1 X132.590 Y92.417 E21.41560
G1 X144.187 Y104.014 E22.21325
G1 X143.659 Y104.284 E22.24210
G1 X131.580 Y92.206 E23.07293
G1 X132.137 Y95.159 F3000.000
G1 X128.259 Y91.281 E23.33969 F1080.000
G1 X127.304 Y89.527 F3000.000
G1 X142.851 Y105.074 E24.40905 F1080.000
G1 X143.220 Y104.644 E24.43659
G1 X127.696 Y89.121 E25.50437
G1 X133.750 Y96.772 F3000.000
G1 X142.481 Y105.503 E26.10491 F1080.000
G1 X142.101 Y105.921 E26.13241
G1 X134.326 Y98.146 E26.66719
G1 X134.241 Y98.860 E26.70213
G1 X141.753 Y106.372 E27.21883
G1 X141.405 Y106.822 E27.24653
G1 X139.433 Y104.850 E27.38217
G1 X139.469 Y105.685 E27.42280
G1 X141.056 Y107.273 E27.53203
G1 X140.708 Y107.723 E27.55972
G1 X139.294 Y106.309 E27.65698
G1 X139.022 Y106.836 E27.68580
G1 X140.308 Y108.122 E27.77426
G1 X139.850 Y108.463 E27.80202
G1 X138.750 Y107.362 E27.87774
G1 X138.387 Y107.798 E27.90533
G1 X139.393 Y108.804 E27.97450
G1 X138.935 Y109.145 E28.00226
G1 X137.988 Y108.197 E28.06746
G1 X137.588 Y108.596 E28.09492
G1 X138.478 Y109.486 E28.15614
G1 X138.020 Y109.827 E28.18389
G1 X137.188 Y108.995 E28.24112
G1 X136.789 Y109.395 E28.26859
G1 X137.563 Y110.168 E28.32180
G1 X137.052 Y110.456 E28.35032
G1 X136.434 Y109.839 E28.39277
G1 X136.124 Y110.327 E28.42091
G1 X136.448 Y110.650 E28.44318
G1 X135.843 Y110.845 E28.47405
G1 X135.813 Y110.814 E28.47614
G1 F1800.000 E27.97614
G92 E0
G1 X134.802 Y102.616 F3000.000
G1 E0.50000 F1800.000
G1 X132.832 Y100.645 E0.63554 F1080.000
G1 X133.268 Y100.283 E0.66313
G1 X135.503 Y102.518 E0.81686
G1 X136.204 Y102.421 E0.85129
G1 X133.705 Y99.921 E1.02321
G1 X134.083 Y99.501 E1.05071
G1 X137.016 Y102.433 E1.25243
G1 X134.101 Y102.713 F3000.000
G1 X132.375 Y100.988 E1.37113 F1080.000
G1 X131.815 Y101.226 E1.40076
G1 X133.400 Y102.811 E1.50981
G1 X132.679 Y102.889 E1.54507
G1 X131.031 Y101.241 E1.65841
G1 X130.248 Y101.257 E1.69650
G1 X131.807 Y102.815 E1.80369
G1 X130.916 Y102.723 E1.84726
G1 X129.465 Y101.272 E1.94703
G1 X128.682 Y101.287 E1.98513
G1 X130.025 Y102.630 E2.07749
G1 X129.103 Y102.507 E2.12272
G1 X127.929 Y101.333 E2.20346
G1 X127.295 Y101.497 E2.23534
G1 X127.932 Y102.134 E2.27916
G1 X155.564 Y97.924 F3000.000
G1 X154.588 Y99.709 F3000.000
G1 X146.194 Y87.652 F3000.000
G1 X143.191 Y84.649 E2.48571 F1080.000
G1 X142.848 Y85.104 E2.51344
G1 X150.794 Y93.051 E3.06002
G1 X150.714 Y92.172 E3.10295
G1 X146.355 Y87.813 E3.40276
G1 X147.745 Y88.404 F3000.000
G1 X150.940 Y91.599 E3.62247 F1080.000
G1 X151.284 Y91.144 E3.65020
G1 X148.610 Y88.471 E3.83411
G1 X149.447 Y88.509 E3.87485
G1 X151.615 Y90.677 E4.02401
G1 X152.093 Y90.356 E4.05200
G1 X150.143 Y88.406 E4.18612
G1 X150.838 Y88.303 E4.22034
G1 X152.613 Y90.077 E4.34239
G1 X153.133 Y89.799 E4.37109
G1 X151.534 Y88.200 E4.48107
G1 X152.230 Y88.097 E4.51528
G1 X153.838 Y89.706 E4.62590
G1 X154.625 Y89.693 E4.66416
G1 X153.085 Y88.154 E4.77006
G1 X153.949 Y88.219 E4.81219
G1 X155.411 Y89.681 E4.91278
G1 X156.198 Y89.669 E4.95103
G1 X154.813 Y88.284 E5.04632
G1 X155.789 Y88.462 E5.09458
G1 X156.973 Y89.646 E5.17602
G1 X157.593 Y89.467 E5.20741
G1 X156.820 Y88.693 E5.26063
G1 X155.234 Y88.100 F3000.000
G1 X134.071 Y97.934 F3000.000
G1 X149.111 Y80.186 F3000.000
G1 X149.144 Y80.219 E5.26289 F1080.000
G1 X148.864 Y80.738 E5.29156
G1 X148.512 Y80.386 E5.31581
G1 X147.912 Y80.585 E5.34654
G1 X148.517 Y81.190 E5.38813
G1 X148.128 Y81.599 E5.41561
G1 X147.316 Y80.788 E5.47142
G1 X146.868 Y81.138 E5.49910
G1 X147.739 Y82.009 E5.55902
G1 X147.350 Y82.418 E5.58650
