; generated by Slic3r 1.1.7 on 2015-01-07 at 16:23:46

; perimeters extrusion width = 0.40mm
; infill extrusion width = 0.42mm
; solid infill extrusion width = 0.42mm
; top infill extrusion width = 0.42mm

G21 ; set units to millimeters
M107
M104 S280 ; set temperature

M109 S280 ; wait for temperature to be reached
G90 ; use absolute coordinates
G92 E0
M82 ; use absolute distances for extrusion
G1 F1800.000 E-0.50000
G92 E0
G1 Z0.300 F3000.000
G1 X132.310 Y83.091 F3000.000
G1 E0.50000 F1800.000
G1 X133.380 Y82.028 E0.57334 F641.601
G1 X134.580 Y81.081 E0.64771
G1 X136.590 Y80.001 E0.75868
G1 X138.617 Y79.673 E0.85853
G1 X148.675 Y79.636 E1.34772
G1 X150.923 Y80.025 E1.45869
G1 X152.721 Y81.015 E1.55853 F641.601
G1 X153.929 Y81.953 E1.63290
G1 X155.006 Y83.008 E1.70623
G1 X156.149 Y84.982 E1.81720
G1 X156.547 Y87.229 E1.92818
G1 X156.063 Y89.702 E2.05073
G1 X150.280 Y103.913 E2.79695
G1 X149.066 Y105.844 E2.90792
G1 X147.263 Y107.242 E3.01889
G1 X144.362 Y107.996 E3.16465
G1 X143.136 Y108.001 E3.22429
G1 X140.896 Y107.567 E3.33526
G1 X138.940 Y106.392 E3.44623
G1 X137.189 Y103.960 E3.59199
G1 X131.302 Y89.792 E4.33821
G1 X130.807 Y87.565 E4.44918
G1 X131.104 Y85.303 E4.56015
G1 X132.281 Y83.143 E4.67978
G1 F1800.000 E4.17978
G92 E0
G1 X143.906 Y95.280 F3000.000
G1 E0.50000 F1800.000
G1 X143.500 Y95.282 E0.51972 F600.000
G1 X143.373 Y93.985 E0.58307
G1 X143.697 Y93.668 E0.60515
G1 X144.023 Y93.983 E0.62722
G1 X143.911 Y95.220 E0.68765
G1 F1800.000 E0.18765
G92 E0
G1 X148.689 Y87.766 F3000.000
G1 E0.50000 F1800.000
G1 X148.559 Y88.029 E0.51426 F600.000
G1 X146.585 Y91.424 E0.70529
G1 X146.566 Y91.526 E0.71030
G1 X143.695 Y93.158 E0.87092
G1 X140.812 Y91.547 E1.03154
G1 X140.793 Y91.446 E1.03655
G1 X138.793 Y88.065 E1.22758
G1 X138.662 Y87.803 E1.24184
G1 X138.908 Y87.575 E1.25816
G1 X139.137 Y87.714 E1.27119
G1 X141.045 Y89.333 E1.39288
G1 X141.657 Y89.226 E1.42311
G1 X143.682 Y89.521 E1.52262
G1 X145.704 Y89.212 E1.62212
G1 X146.317 Y89.315 E1.65237
G1 X148.213 Y87.681 E1.77411
G1 X148.441 Y87.540 E1.78713
G1 X148.645 Y87.726 E1.80053
G1 X149.179 Y87.411 F3000.000
G1 X149.533 Y87.421 E1.81776 F600.000
G1 X149.177 Y88.037 E1.85239
G1 X149.050 Y88.293 E1.86627
G1 X147.115 Y91.621 E2.05354
G1 X147.066 Y91.881 E2.06638
G1 X144.288 Y93.464 E2.22191
G1 X144.602 Y93.768 E2.24315
G1 X143.932 Y101.149 E2.60361
G1 X143.724 Y101.152 E2.61372
G1 X143.516 Y101.150 E2.62383
G1 X142.792 Y93.775 E2.98429
G1 X143.104 Y93.469 E3.00553
G1 X140.314 Y91.906 E3.16106
G1 X140.264 Y91.646 E3.17391
G1 X138.304 Y88.332 E3.36117
G1 X138.176 Y88.077 E3.37505
G1 X137.815 Y87.463 E3.40968
G1 X138.169 Y87.451 E3.42691
G1 X138.245 Y86.993 E3.44947
G1 X138.758 Y87.000 E3.47441
G1 X138.799 Y86.749 E3.48679
G1 X139.298 Y87.160 E3.51819
G1 X139.464 Y87.260 E3.52762
G1 X141.206 Y88.739 E3.63878
G1 X141.649 Y88.662 E3.66065
G1 X143.680 Y88.958 E3.76045
G1 X145.708 Y88.648 E3.86024
G1 X146.151 Y88.722 E3.88212
G1 X147.883 Y87.229 E3.99332
G1 X148.048 Y87.128 E4.00275
G1 X148.544 Y86.714 E4.03415
G1 X148.587 Y86.965 E4.04653
G1 X149.100 Y86.954 E4.07147
G1 X149.169 Y87.352 E4.09110
G1 X149.192 Y87.765 F3000.000
G1 X147.375 Y88.910 F3000.000
G1 X147.519 Y89.054 E4.10102 F641.601
G1 X147.204 Y89.596 E4.13155
G1 X146.914 Y89.307 E4.15147
G1 X146.453 Y89.704 E4.18107
G1 X146.888 Y90.139 E4.21098
G1 X146.573 Y90.682 E4.24151
G1 X145.520 Y89.629 E4.31394
G1 X144.775 Y89.742 E4.35058
G1 X146.254 Y91.221 E4.45227
G1 X145.732 Y91.558 E4.48246
G1 X144.030 Y89.856 E4.59953
G1 X143.147 Y89.831 E4.64250
G1 X145.185 Y91.869 E4.78269
G1 X144.638 Y92.180 E4.81330
G1 X142.143 Y89.685 E4.98493
G1 X141.281 Y89.681 E5.02684
G1 X144.091 Y92.491 E5.22011
G1 X143.161 Y92.420 E5.26545
G1 X139.866 Y89.124 E5.49216
G1 X141.107 Y91.224 F3000.000
G1 X141.216 Y91.333 E5.49964 F641.601
G1 F1800.000 E4.99964
G92 E0
G1 X143.297 Y89.609 F3000.000
G1 X141.409 Y91.719 F3000.000
G1 X146.231 Y101.261 F3000.000
G1 X143.875 Y94.038 F3000.000
G1 X143.704 Y95.559 F3000.000
G1 E0.50000 F1800.000
G1 X143.711 Y97.499 E0.64148 F600.000
G1 X143.711 Y97.499 F3000.000
G1 X143.716 Y98.943 E0.68203 F600.000
M106 S255
G1 F1800.000 E0.18203
G92 E0
G1 Z0.600 F3000.000
G1 X143.698 Y93.854 F3000.000
G1 E0.50000 F1800.000
G1 X144.340 Y94.475 E0.53118 F600.000
G1 X143.864 Y99.699 E0.71439
G1 X143.573 Y99.700 E0.72456
G1 X143.060 Y94.479 E0.90776
G1 X143.655 Y93.896 E0.93685
G1 X138.615 Y87.417 F3000.000
G1 X139.131 Y87.424 E0.95487 F600.000
G1 X139.349 Y87.556 E0.96379
G1 X140.860 Y88.839 E1.03300
G1 X142.098 Y88.623 E1.07687
G1 X143.679 Y88.853 E1.13268
G1 X145.259 Y88.612 E1.18848
G1 X146.498 Y88.819 E1.23235
G1 X148.000 Y87.525 E1.30159
G1 X148.217 Y87.391 E1.31051
G1 X148.733 Y87.380 E1.32853
G1 X148.831 Y87.946 E1.34860
G1 X148.678 Y88.257 E1.36071
G1 X147.091 Y90.986 E1.47096
G1 X146.929 Y91.850 E1.50167
G1 X143.697 Y93.680 E1.63137
G1 X140.451 Y91.874 E1.76107
G1 X140.284 Y91.011 E1.79177
G1 X138.677 Y88.294 E1.90202
G1 X138.521 Y87.984 E1.91413
G1 X138.605 Y87.476 E1.93211
G1 X143.146 Y93.835 F3000.000
G1 X140.094 Y92.132 E2.05416 F600.000
G1 X139.904 Y91.155 E2.08891
G1 X138.326 Y88.486 E2.19722
G1 X137.940 Y87.720 E2.22715
G1 X137.776 Y87.440 E2.23848
G1 X138.208 Y87.425 E2.25358
G1 X138.250 Y87.170 E2.26261
G1 X138.390 Y87.014 E2.26993
G1 X138.683 Y87.018 E2.28016
G1 X138.744 Y86.649 E2.29322
G1 X139.082 Y86.927 E2.30850
G1 X139.584 Y87.231 E2.32898
G1 X140.976 Y88.413 E2.39277
G1 X142.083 Y88.220 E2.43198
M106 S255
G1 X143.678 Y88.449 E2.49092 F3600.000
G1 X145.271 Y88.209 E2.54985
M106 S255
G1 X146.379 Y88.394 E2.58906 F600.000
G1 X147.763 Y87.201 E2.65288
G1 X148.262 Y86.894 E2.67335
G1 X148.598 Y86.613 E2.68863
G1 X148.662 Y86.981 E2.70169
G1 X148.955 Y86.975 E2.71192
G1 X149.096 Y87.130 E2.71924
G1 X149.140 Y87.385 E2.72827
G1 X149.572 Y87.397 E2.74337
G1 X149.410 Y87.678 E2.75471
G1 X149.030 Y88.446 E2.78463
G1 X147.471 Y91.128 E2.89295
G1 X147.288 Y92.106 E2.92769
G1 X144.249 Y93.831 E3.04975
G1 X144.755 Y94.320 E3.07435
G1 X144.109 Y101.433 E3.32377
G1 X143.342 Y101.436 E3.35056
G1 X142.643 Y94.328 E3.59999
G1 X143.103 Y93.877 E3.62249
G1 X145.559 Y88.487 F3000.000
G1 X143.348 Y94.609 F3000.000
G1 X143.701 Y94.256 E3.64075 F600.000
G1 X144.041 Y94.596 E3.65834
G1 X143.409 Y95.228 E3.69104
G1 X143.944 Y95.373 E3.71132
G1 X143.986 Y95.331 E3.71350
G1 X143.704 Y95.648 F3000.000
G1 X143.710 Y97.188 E3.78840 F600.000
G1 X143.710 Y97.188 F3000.000
G1 X143.713 Y98.151 E3.80882 F600.000
G1 X143.720 Y99.900 F3000.000
G1 X143.725 Y101.240 E3.87404 F600.000
G1 X143.763 Y93.327 F3000.000
G1 X147.703 Y89.387 E4.07782 F600.000
G1 X147.761 Y88.092 F3000.000
G1 X142.920 Y92.934 E4.32819 F600.000
G1 X143.317 Y93.155 E4.34482
G1 X148.525 Y87.947 E4.61417
G1 X146.189 Y89.046 F3000.000
G1 X142.523 Y92.712 E4.80381 F600.000
G1 X142.125 Y92.491 E4.82044
G1 X145.660 Y88.957 E5.00322
G1 X145.082 Y88.917 E5.02441
G1 X141.728 Y92.270 E5.19786
G1 X141.331 Y92.049 E5.21449
G1 X144.352 Y89.028 E5.37075
G1 X143.637 Y89.124 E5.39712
G1 X140.933 Y91.828 E5.53697
G1 X140.656 Y91.488 E5.55304
G1 X143.098 Y89.046 E5.67934
G1 X142.558 Y88.967 E5.69929
G1 X140.555 Y90.970 E5.80287
G1 X140.340 Y90.567 E5.81958
G1 X141.986 Y88.921 E5.90471
G1 X141.237 Y89.052 E5.93250
G1 X140.110 Y90.178 E5.99079
G1 X139.880 Y89.790 E6.00729
G1 X140.650 Y89.020 E6.04711
G1 X140.316 Y88.736 E6.06316
G1 X139.650 Y89.401 E6.09756
G1 X139.421 Y89.013 E6.11407
G1 X139.981 Y88.452 E6.14306
G1 X139.647 Y88.168 E6.15911
G1 X139.191 Y88.624 E6.18269
G1 X138.961 Y88.236 E6.19919
G1 X139.312 Y87.884 E6.21736
G1 X138.883 Y87.695 E6.23450
G1 X138.839 Y87.739 E6.23678
G1 X145.188 Y92.521 F3000.000
G1 X146.844 Y90.864 E6.32245 F600.000
G1 X146.612 Y91.715 E6.35469
G1 X146.690 Y91.637 E6.35872
G1 F1800.000 E5.85872
G92 E0
G1 Z0.900 F3000.000
G1 X143.702 Y94.958 F3000.000
G1 E0.50000 F1800.000
G1 X143.973 Y95.220 E0.51318 F600.000
G1 X143.853 Y96.532 E0.55917
G1 X143.562 Y96.533 E0.56933
G1 X143.432 Y95.222 E0.61532
G1 X143.659 Y95.000 E0.62641
G1 X143.700 Y94.400 F3000.000
G1 X144.389 Y95.066 E0.65988 F600.000
G1 X143.868 Y100.780 E0.86027
G1 X143.577 Y100.781 E0.87044
G1 X143.015 Y95.071 E1.07082
G1 X143.657 Y94.442 E1.10220
G1 X148.165 Y88.262 F3000.000
G1 X146.971 Y90.316 E1.18517 F600.000
G1 X146.702 Y91.756 E1.23635
G1 X143.696 Y93.454 E1.35692
G1 X140.678 Y91.778 E1.47749
G1 X140.398 Y90.340 E1.52867
G1 X139.189 Y88.294 E1.61166
G1 X139.396 Y88.120 E1.62112
G1 X140.486 Y89.045 E1.67105
G1 X142.548 Y88.686 E1.74417
G1 X143.679 Y88.850 E1.78408
G1 X144.809 Y88.678 E1.82399
G1 X146.874 Y89.022 E1.89711
G1 X147.957 Y88.089 E1.94704
G1 X148.119 Y88.224 E1.95440
G1 X148.802 Y87.892 F3000.000
G1 X148.569 Y88.363 E1.97278 F600.000
G1 X147.352 Y90.457 E2.05736
G1 X147.061 Y92.011 E2.11258
G1 X143.698 Y93.911 E2.24749
G1 X140.320 Y92.036 E2.38239
G1 X140.019 Y90.484 E2.43761
G1 X138.786 Y88.399 E2.52219
G1 X138.550 Y87.929 E2.54056
G1 X138.998 Y87.358 E2.56591
G1 X139.411 Y87.608 E2.58279
G1 X140.602 Y88.619 E2.63733
G1 X142.543 Y88.281 E2.70613
G1 X143.678 Y88.446 E2.74619
G1 X144.812 Y88.273 E2.78625
G1 X146.755 Y88.597 E2.85505
G1 X147.938 Y87.577 E2.90961
G1 X148.350 Y87.324 E2.92649
G1 X148.765 Y87.845 E2.94974
G1 X144.044 Y94.176 F3000.000
G1 X144.805 Y94.911 E2.98668 F600.000
G1 X144.194 Y101.622 E3.22200
G1 X143.258 Y101.625 E3.25467
G1 X142.598 Y94.919 E3.48998
G1 X143.353 Y94.179 E3.52692
G1 X139.963 Y92.294 E3.66240
G1 X139.639 Y90.628 E3.72165
G1 X138.435 Y88.591 E3.80430
G1 X138.078 Y87.882 E3.83201
G1 X138.902 Y86.832 E3.87860
G1 X139.646 Y87.282 E3.90897
G1 X140.718 Y88.192 E3.95808
G1 X142.527 Y87.877 E4.02223
M106 S255
G1 X143.676 Y88.041 E4.06468 F3600.000
G1 X144.824 Y87.869 E4.10713
M106 S255
G1 X146.636 Y88.172 E4.17127 F600.000
G1 X147.702 Y87.253 E4.22041
G1 X148.442 Y86.798 E4.25077
G1 X149.273 Y87.841 E4.29736
G1 X148.922 Y88.553 E4.32507
G1 X147.732 Y90.598 E4.40772
G1 X147.421 Y92.266 E4.46698
G1 X144.096 Y94.147 E4.60036
G1 X145.183 Y88.046 F3000.000
G1 X147.152 Y89.145 F3000.000
G1 X147.267 Y89.261 E4.60634 F660.496
G1 X147.040 Y89.652 E4.62287
G1 X146.652 Y89.263 E4.64295
G1 X145.910 Y89.140 E4.67045
G1 X146.813 Y90.042 E4.71714
G1 X146.657 Y90.505 E4.73498
G1 X145.168 Y89.016 E4.81197
G1 X144.532 Y88.998 E4.83525
G1 X146.560 Y91.025 E4.94013
G1 X146.461 Y91.545 E4.95946
G1 X143.995 Y89.079 E5.08697
G1 X143.382 Y89.084 E5.10940
G1 X146.087 Y91.789 E5.24929
G1 X145.692 Y92.012 E5.26588
G1 X142.659 Y88.979 E5.42275
G1 X142.103 Y89.042 E5.44319
G1 X145.297 Y92.235 E5.60837
G1 X144.902 Y92.458 E5.62496
G1 X141.577 Y89.133 E5.79693
G1 X141.050 Y89.225 E5.81647
G1 X144.507 Y92.681 E5.99524
G1 X144.112 Y92.905 E6.01183
G1 X140.524 Y89.317 E6.19739
G1 X140.410 Y89.821 E6.21629
G1 X143.717 Y93.128 E6.38733
G1 X142.382 Y92.411 F3000.000
G1 X140.766 Y90.795 E6.47092 F660.496
G1 X140.915 Y91.562 E6.49950
G1 X140.992 Y91.639 E6.50347
G1 F1800.000 E6.00347
G92 E0
G1 X143.208 Y88.782 F3000.000
G1 X139.447 Y84.451 F3000.000
G1 X150.151 Y85.412 F3000.000
G1 X146.292 Y102.840 F3000.000
G1 X143.973 Y95.220 F3000.000
G1 X143.708 Y96.732 F3000.000
G1 E0.50000 F1800.000
G1 X143.714 Y98.269 E0.57476 F600.000
G1 X143.714 Y98.269 F3000.000
G1 X143.717 Y99.232 E0.59518 F600.000
G1 F1800.000 E0.09518
G92 E0
G1 Z1.200 F3000.000
G1 X143.704 Y95.503 F3000.000
G1 E0.50000 F1800.000
G1 X144.022 Y95.811 E0.51547 F600.000
G1 X143.857 Y97.615 E0.57874
G1 X143.566 Y97.616 E0.58890
G1 X143.387 Y95.813 E0.65218
G1 X143.661 Y95.545 E0.66555
G1 X143.702 Y94.945 F3000.000
G1 X144.438 Y95.657 E0.70131 F600.000
G1 X143.913 Y101.414 E0.90323
G1 X143.537 Y101.416 E0.91634
G1 X142.970 Y95.662 E1.11825
G1 X143.659 Y94.987 E1.15192
G1 X148.073 Y88.341 F3000.000
G1 X147.232 Y89.787 E1.21030 F600.000
G1 X146.834 Y91.917 E1.28599
G1 X143.697 Y93.686 E1.41177
G1 X140.547 Y91.940 E1.53755
G1 X140.133 Y89.813 E1.61323
G1 X139.282 Y88.373 E1.67164
G1 X139.489 Y88.198 E1.68109
G1 X140.227 Y88.825 E1.71490
G1 X142.993 Y88.343 E1.81295
G1 X143.678 Y88.443 E1.83712
G1 X144.362 Y88.338 E1.86129
G1 X147.131 Y88.800 E1.95934
G1 X147.864 Y88.169 E1.99314
G1 X148.026 Y88.303 E2.00050
G1 X148.565 Y88.259 F3000.000
G1 X148.461 Y88.469 E2.00869 F600.000
G1 X147.613 Y89.928 E2.06761
G1 X147.194 Y92.172 E2.14734
G1 X143.699 Y94.142 E2.28745
G1 X140.189 Y92.198 E2.42756
G1 X139.754 Y89.957 E2.50729
G1 X138.895 Y88.505 E2.56620
G1 X138.790 Y88.295 E2.57439
G1 X139.362 Y87.566 E2.60676
G1 X140.343 Y88.399 E2.65171
G1 X142.987 Y87.938 E2.74544
G1 X143.676 Y88.038 E2.76976
G1 X144.365 Y87.933 E2.79408
G1 X147.012 Y88.375 E2.88781
G1 X147.987 Y87.534 E2.93278
G1 X148.527 Y88.212 E2.96305
G1 X143.839 Y94.522 F3000.000
G1 X144.854 Y95.502 E3.01232 F600.000
G1 X144.279 Y101.809 E3.23348
G1 X143.174 Y101.813 E3.27205
G1 X142.553 Y95.511 E3.49321
G1 X143.561 Y94.523 E3.54249
G1 X141.414 Y93.347 E3.62796
G1 X139.832 Y92.455 E3.69139
G1 X139.374 Y90.101 E3.77516
G1 X138.544 Y88.697 E3.83213
G1 X138.318 Y88.248 E3.84967
G1 X139.251 Y87.058 E3.90246
G1 X139.707 Y87.334 E3.92108
G1 X140.459 Y87.972 E3.95552
G1 X142.972 Y87.535 E4.04460
M106 S255
G1 X143.675 Y87.634 E4.07056 F3600.000
G1 X144.377 Y87.530 E4.09653
M106 S255
G1 X146.893 Y87.950 E4.18560 F600.000
G1 X147.640 Y87.305 E4.22005
G1 X148.094 Y87.026 E4.23867
G1 X149.036 Y88.209 E4.29146
G1 X148.813 Y88.659 E4.30900
G1 X147.993 Y90.069 E4.36598
G1 X147.553 Y92.427 E4.44975
G1 X145.977 Y93.331 E4.51318
G1 X143.892 Y94.493 E4.59656
G1 X144.720 Y87.737 F3000.000
G1 X147.216 Y89.269 F3000.000
G1 X143.321 Y93.164 E4.79800 F683.176
G1 X142.932 Y92.948 E4.81427
G1 X146.849 Y89.031 E5.01686
G1 X146.331 Y88.945 E5.03606
G1 X142.543 Y92.733 E5.23198
G1 X142.154 Y92.517 E5.24824
G1 X145.813 Y88.858 E5.43747
G1 X145.295 Y88.772 E5.45668
G1 X141.765 Y92.302 E5.63924
G1 X141.376 Y92.086 E5.65550
G1 X144.777 Y88.686 E5.83138
G1 X144.221 Y88.637 E5.85179
G1 X140.987 Y91.871 E6.01902
G1 X140.743 Y91.511 E6.03493
G1 X143.552 Y88.702 E6.18024
G1 X143.024 Y88.625 E6.19974
G1 X140.644 Y91.005 E6.32283
G1 X140.546 Y90.499 E6.34169
G1 X142.303 Y88.742 E6.43257
G1 X141.571 Y88.869 E6.45974
G1 X140.448 Y89.993 E6.51785
G1 X140.293 Y89.543 E6.53524
G1 X140.839 Y88.997 E6.56350
G1 X140.107 Y89.124 E6.59068
G1 X140.068 Y89.163 E6.59270
G1 X143.746 Y93.343 F3000.000
G1 X146.873 Y90.216 E6.75442 F683.176
G1 X146.595 Y91.703 F3000.000
G1 X146.518 Y91.781 E6.75844 F683.176
G1 X146.734 Y90.960 E6.78949
G1 X145.132 Y92.562 E6.87236
G1 F1800.000 E6.37236
G92 E0
G1 X148.016 Y88.213 F3000.000
G1 X150.101 Y86.015 F3000.000
G1 X146.325 Y103.598 F3000.000
G1 X144.022 Y95.811 F3000.000
G1 X143.712 Y97.816 F3000.000
G1 E0.50000 F1800.000
G1 X143.718 Y99.350 E0.57461 F600.000
G1 X143.718 Y99.350 F3000.000
G1 X143.721 Y100.313 E0.59504 F600.000
G1 F1800.000 E0.09504
G92 E0
G1 Z1.500 F3000.000
G1 X143.706 Y96.049 F3000.000
G1 E0.50000 F1800.000
G1 X144.071 Y96.402 E0.51776 F600.000
G1 X143.861 Y98.699 E0.59832
G1 X143.570 Y98.700 E0.60848
G1 X143.342 Y96.405 E0.68904
G1 X143.663 Y96.091 E0.70470
G1 X143.704 Y95.491 F3000.000
G1 X144.487 Y96.248 E0.74275 F600.000
G1 X143.998 Y101.602 E0.93050
G1 X143.454 Y101.604 E0.94951
G1 X142.926 Y96.253 E1.13727
G1 X143.661 Y95.533 E1.17322
G1 X143.701 Y94.932 F3000.000
G1 X144.903 Y96.093 E1.23157 F600.000
G1 X144.364 Y101.996 E1.43857
G1 X143.091 Y102.001 E1.48303
G1 X142.509 Y96.102 E1.69004
G1 X143.659 Y94.974 E1.74628
G1 X143.808 Y95.318 F3000.000
G1 F1800.000 E1.24628
G92 E0
G1 X139.736 Y88.408 F3000.000
G1 E0.50000 F1800.000
G1 X139.968 Y88.605 E0.51063 F600.000
G1 X143.437 Y88.000 E0.63360
G1 X143.676 Y88.035 E0.64203
G1 X143.915 Y87.999 E0.65046
G1 X147.388 Y88.578 E0.77344
G1 X147.619 Y88.379 E0.78409
G1 X147.841 Y88.659 E0.79656
G1 X147.493 Y89.258 E0.82075
G1 X146.966 Y92.078 E0.92094
G1 X143.698 Y93.917 E1.05193
G1 X140.416 Y92.102 E1.18292
G1 X139.868 Y89.285 E1.28311
G1 X139.516 Y88.689 E1.30729
G1 X139.699 Y88.455 E1.31768
G1 X139.678 Y87.834 F3000.000
G1 X140.084 Y88.179 E1.33629 F600.000
G1 X143.432 Y87.595 E1.45496
G1 X143.675 Y87.631 E1.46354
G1 X143.918 Y87.594 E1.47211
G1 X147.269 Y88.153 E1.59078
