; generated by Slic3r 1.1.7 on 2015-01-06 at 22:40:20

; perimeters extrusion width = 0.40mm
; infill extrusion width = 0.42mm
; solid infill extrusion width = 0.42mm
; top infill extrusion width = 0.42mm

G21 ; set units to millimeters
M107
M104 S270 ; set temperature

M109 S270 ; wait for temperature to be reached
G90 ; use absolute coordinates
G92 E0
M82 ; use absolute distances for extrusion
G1 F1800.000 E-0.50000
G92 E0
G1 Z0.300 F3000.000
G1 X86.314 Y87.050 F3000.000
G1 E0.50000 F1800.000
G1 X87.913 Y85.465 E0.62512 F1080.000
G1 X90.209 Y83.457 E0.79467
G1 X92.627 Y81.598 E0.96422
G1 X94.643 Y80.228 E1.09966
G1 X95.157 Y79.894 E1.13378
G1 X97.790 Y78.353 E1.30333
G1 X100.513 Y76.979 E1.47288
G1 X103.318 Y75.780 E1.64243
G1 X106.192 Y74.759 E1.81198
G1 X109.125 Y73.920 E1.98153
G1 X112.104 Y73.268 E2.15108
G1 X115.119 Y72.803 E2.32063
G1 X118.157 Y72.529 E2.49018
G1 X120.794 Y72.446 E2.63684
G1 X123.052 Y72.772 E2.76367
G1 X125.062 Y73.853 E2.89049 F1080.000
G1 X126.580 Y75.556 E3.01731
G1 X127.422 Y77.676 E3.14414
G1 X127.557 Y79.000 E3.21809
G1 X127.557 Y121.000 E5.55269
G1 X127.160 Y123.247 E5.67951
G1 X126.017 Y125.222 E5.80634
G1 X124.267 Y126.685 E5.93316
G1 X121.000 Y127.557 E6.12112
G1 X79.000 Y127.557 E8.45572
G1 X76.753 Y127.160 E8.58254
G1 X74.778 Y126.017 E8.70936
G1 X73.315 Y124.267 E8.83619
G1 X72.539 Y122.121 E8.96301
G1 X72.446 Y120.794 E9.03697
G1 X72.555 Y117.746 E9.20652
G1 X72.855 Y114.710 E9.37607
G1 X73.236 Y112.304 E9.51152
G1 X73.345 Y111.700 E9.54563
G1 X74.023 Y108.726 E9.71518
G1 X74.886 Y105.800 E9.88473
G1 X75.932 Y102.935 E10.05428
G1 X77.155 Y100.140 E10.22383
G1 X78.551 Y97.429 E10.39338
G1 X79.792 Y95.331 E10.52882
G1 X80.115 Y94.810 E10.56293
G1 X81.840 Y92.294 E10.73248
G1 X83.720 Y89.892 E10.90203
G1 X85.331 Y88.064 E11.03748
G1 X85.747 Y87.612 E11.07159
G1 X86.272 Y87.092 E11.11268
G1 F1800.000 E10.61268
G92 E0
G1 X107.393 Y107.873 F3000.000
G1 E0.50000 F1800.000
G1 X106.884 Y108.322 E0.53771 F378.000
G1 X106.348 Y108.737 E0.57543
G1 X105.787 Y109.119 E0.61314
G1 X105.203 Y109.464 E0.65085
G1 X104.598 Y109.772 E0.68857
G1 X103.976 Y110.042 E0.72628
G1 X103.337 Y110.272 E0.76400
G1 X102.686 Y110.461 E0.80171
G1 X102.024 Y110.609 E0.83942
G1 X101.354 Y110.715 E0.87714
G1 X100.678 Y110.779 E0.91485
G1 X100.000 Y110.800 E0.95257
G1 X99.322 Y110.779 E0.99028
G1 X98.646 Y110.715 E1.02799
G1 X97.976 Y110.609 E1.06571
G1 X97.314 Y110.461 E1.10342
G1 X96.663 Y110.272 E1.14113
G1 X96.024 Y110.042 E1.17885
G1 X95.402 Y109.772 E1.21656
G1 X94.797 Y109.464 E1.25428
G1 X94.213 Y109.119 E1.29199
G1 X93.652 Y108.738 E1.32970
G1 X93.116 Y108.322 E1.36742
G1 X92.607 Y107.873 E1.40513
G1 X92.127 Y107.393 E1.44285
G1 X91.678 Y106.884 E1.48056
G1 X91.263 Y106.348 E1.51827
G1 X90.881 Y105.787 E1.55599
G1 X90.536 Y105.203 E1.59370
G1 X90.228 Y104.598 E1.63142
G1 X89.958 Y103.976 E1.66913
G1 X89.728 Y103.337 E1.70684
G1 X89.539 Y102.686 E1.74456
G1 X89.391 Y102.024 E1.78227
G1 X89.285 Y101.354 E1.81998
G1 X89.221 Y100.678 E1.85770
G1 X89.200 Y100.000 E1.89541
G1 X89.221 Y99.322 E1.93313
G1 X89.285 Y98.646 E1.97084
G1 X89.391 Y97.976 E2.00855
G1 X89.539 Y97.314 E2.04627
G1 X89.728 Y96.663 E2.08398
G1 X89.958 Y96.024 E2.12169
G1 X90.228 Y95.402 E2.15941
G1 X90.536 Y94.797 E2.19712
G1 X90.881 Y94.213 E2.23484
G1 X91.263 Y93.652 E2.27255
G1 X91.678 Y93.116 E2.31026
G1 X92.127 Y92.607 E2.34798
G1 X92.607 Y92.127 E2.38569
G1 X93.116 Y91.678 E2.42341
G1 X93.652 Y91.263 E2.46112
G1 X94.213 Y90.881 E2.49883
G1 X94.797 Y90.536 E2.53655
G1 X95.402 Y90.228 E2.57426
G1 X96.024 Y89.958 E2.61197
G1 X96.663 Y89.728 E2.64969
G1 X97.314 Y89.539 E2.68740
G1 X97.976 Y89.391 E2.72512
G1 X98.646 Y89.285 E2.76283
G1 X99.322 Y89.221 E2.80054
G1 X100.000 Y89.200 E2.83826
G1 X100.618 Y89.219 E2.87264
G1 X101.354 Y89.285 E2.91368 F378.000
G1 X102.024 Y89.391 E2.95139
G1 X102.686 Y89.539 E2.98911
G1 X103.337 Y89.728 E3.02682
G1 X103.976 Y89.958 E3.06453
G1 X104.598 Y90.228 E3.10225
G1 X105.203 Y90.536 E3.13996
G1 X105.787 Y90.881 E3.17768
G1 X106.348 Y91.263 E3.21539
G1 X106.884 Y91.678 E3.25310
G1 X107.393 Y92.127 E3.29082
G1 X107.873 Y92.607 E3.32853
G1 X108.322 Y93.116 E3.36625
G1 X108.738 Y93.652 E3.40396
G1 X109.119 Y94.213 E3.44167
G1 X109.464 Y94.797 E3.47939
G1 X109.772 Y95.402 E3.51710
G1 X110.042 Y96.024 E3.55481
G1 X110.272 Y96.663 E3.59253
G1 X110.461 Y97.314 E3.63024
G1 X110.609 Y97.976 E3.66796
G1 X110.715 Y98.646 E3.70567
G1 X110.779 Y99.322 E3.74338
G1 X110.798 Y100.060 E3.78442
G1 X110.779 Y100.678 E3.81881
G1 X110.715 Y101.354 E3.85652
G1 X110.609 Y102.024 E3.89423
G1 X110.461 Y102.686 E3.93195
G1 X110.272 Y103.337 E3.96966
G1 X110.042 Y103.976 E4.00737
G1 X109.772 Y104.598 E4.04509
G1 X109.464 Y105.203 E4.08280
G1 X109.119 Y105.787 E4.12052
G1 X108.738 Y106.348 E4.15823
G1 X108.322 Y106.884 E4.19594
G1 X107.873 Y107.393 E4.23366
G1 X107.436 Y107.831 E4.26804
G1 F1800.000 E3.76804
G92 E0
G1 X100.591 Y88.820 F3000.000
G1 X112.937 Y111.357 F3000.000
G1 E0.50000 F1800.000
G1 X112.937 Y88.643 E1.76258 F540.000
G1 X118.571 Y88.643 E2.07576
G1 X118.571 Y111.357 E3.33834
G1 X112.997 Y111.357 E3.64818
G1 X113.494 Y110.800 F3000.000
G1 X113.494 Y89.200 E4.84883 F378.000
G1 X118.014 Y89.200 E5.10008
G1 X118.014 Y110.800 E6.30073
G1 X113.554 Y110.800 E6.54864
G1 X113.094 Y110.800 F3000.000
G1 X111.357 Y112.937 F3000.000
G1 X111.357 Y118.571 E6.86182 F540.000
G1 X88.643 Y118.571 E8.12440
G1 X88.643 Y112.937 E8.43758
G1 X111.297 Y112.937 E9.69682
G1 X110.800 Y113.494 F3000.000
G1 X110.800 Y118.014 E9.94807 F378.000
G1 X89.200 Y118.014 E11.14872
G1 X89.200 Y113.494 E11.39997
G1 X110.740 Y113.494 E12.59728
G1 X111.200 Y113.494 F3000.000
G1 X120.143 Y120.143 F3000.000
G1 X79.884 Y120.143 E14.83508 F540.000
G1 X79.939 Y118.417 E14.93108
G1 X80.182 Y115.843 E15.07475
G1 X80.586 Y113.291 E15.21842
G1 X81.150 Y110.768 E15.36209
G1 X81.871 Y108.286 E15.50575
G1 X82.747 Y105.854 E15.64942
G1 X83.773 Y103.482 E15.79309
G1 X84.947 Y101.179 E15.93676
G1 X86.262 Y98.955 E16.08043
G1 X87.715 Y96.817 E16.22410
G1 X89.299 Y94.775 E16.36777
G1 X89.738 Y94.277 E16.40465
G1 X90.063 Y94.498 E16.42649
G1 X89.723 Y95.164 E16.46806
G1 X89.440 Y95.819 E16.50772
G1 X89.198 Y96.490 E16.54738
G1 X88.999 Y97.175 E16.58703
G1 X88.844 Y97.872 E16.62670
G1 X88.732 Y98.577 E16.66636
G1 X88.665 Y99.287 E16.70602
G1 X88.642 Y100.000 E16.74568
G1 X88.665 Y100.713 E16.78534
G1 X88.725 Y101.346 E16.82070
G1 X88.844 Y102.128 E16.86465
G1 X88.999 Y102.825 E16.90431
G1 X89.198 Y103.510 E16.94397
G1 X89.440 Y104.181 E16.98363
G1 X89.693 Y104.765 E17.01899
G1 X90.047 Y105.472 E17.06294
G1 X90.411 Y106.086 E17.10260
G1 X90.812 Y106.676 E17.14226
G1 X91.249 Y107.240 E17.18192
G1 X91.721 Y107.775 E17.22158
G1 X92.225 Y108.279 E17.26124
G1 X92.760 Y108.751 E17.30090
G1 X93.324 Y109.188 E17.34057
G1 X93.914 Y109.589 E17.38022
G1 X94.529 Y109.953 E17.41989
G1 X95.164 Y110.277 E17.45954
G1 X95.819 Y110.560 E17.49920
G1 X96.490 Y110.802 E17.53887
G1 X97.175 Y111.001 E17.57852
G1 X97.872 Y111.156 E17.61818
G1 X98.500 Y111.256 E17.65354
G1 X99.287 Y111.335 E17.69750
G1 X100.000 Y111.358 E17.73716
G1 X100.713 Y111.335 E17.77682
G1 X101.346 Y111.275 E17.81217
G1 X102.128 Y111.156 E17.85613
G1 X102.825 Y111.001 E17.89579
G1 X103.510 Y110.802 E17.93545
G1 X104.181 Y110.560 E17.97511
G1 X104.836 Y110.277 E18.01477
G1 X105.472 Y109.953 E18.05443
G1 X106.086 Y109.589 E18.09409
G1 X106.676 Y109.188 E18.13375
G1 X107.240 Y108.751 E18.17341
G1 X107.717 Y108.330 E18.20877
G1 X108.279 Y107.775 E18.25272
G1 X108.751 Y107.240 E18.29238
G1 X109.188 Y106.676 E18.33204
G1 X109.589 Y106.086 E18.37170
G1 X109.953 Y105.471 E18.41137
G1 X110.277 Y104.836 E18.45102
G1 X110.560 Y104.181 E18.49068
G1 X110.802 Y103.510 E18.53035
G1 X111.001 Y102.825 E18.57000
G1 X111.156 Y102.128 E18.60966
G1 X111.268 Y101.423 E18.64932
G1 X111.335 Y100.713 E18.68898
G1 X111.355 Y100.077 E18.72434
G1 X111.335 Y99.287 E18.76830
G1 X111.268 Y98.577 E18.80796
G1 X111.156 Y97.872 E18.84762
G1 X111.001 Y97.175 E18.88728
G1 X110.802 Y96.490 E18.92693
G1 X110.560 Y95.819 E18.96660
G1 X110.277 Y95.164 E19.00626
G1 X109.953 Y94.529 E19.04592
G1 X109.589 Y93.914 E19.08558
G1 X109.188 Y93.324 E19.12524
G1 X108.751 Y92.760 E19.16490
G1 X108.279 Y92.225 E19.20456
G1 X107.717 Y91.670 E19.24851
G1 X107.240 Y91.249 E19.28387
G1 X106.676 Y90.812 E19.32353
G1 X106.086 Y90.411 E19.36319
G1 X105.472 Y90.047 E19.40285
G1 X104.836 Y89.723 E19.44251
G1 X104.181 Y89.440 E19.48217
G1 X103.510 Y89.198 E19.52183
G1 X102.825 Y88.999 E19.56149
G1 X102.128 Y88.844 E19.60115
G1 X101.346 Y88.725 E19.64511
G1 X100.713 Y88.665 E19.68046
G1 X100.000 Y88.642 E19.72012
G1 X99.287 Y88.665 E19.75978
G1 X98.577 Y88.732 E19.79944
G1 X97.872 Y88.844 E19.83911
G1 X97.175 Y88.999 E19.87877
G1 X96.490 Y89.198 E19.91842
G1 X95.819 Y89.440 E19.95808
G1 X95.164 Y89.723 E19.99775
G1 X94.498 Y90.063 E20.03931
G1 X94.277 Y89.738 E20.06115
G1 X94.775 Y89.299 E20.09804
G1 X96.817 Y87.715 E20.24170
G1 X98.955 Y86.262 E20.38537
G1 X101.179 Y84.947 E20.52904
G1 X103.482 Y83.773 E20.67271
G1 X105.854 Y82.747 E20.81638
G1 X108.286 Y81.871 E20.96005
G1 X110.768 Y81.150 E21.10372
G1 X113.291 Y80.586 E21.24738
G1 X115.843 Y80.182 E21.39105
G1 X118.417 Y79.939 E21.53472
G1 X120.143 Y79.884 E21.63073
G1 X120.143 Y120.083 E23.86518
G1 X120.700 Y120.700 F3000.000
G1 X79.310 Y120.700 E26.16590 F378.000
G1 X79.382 Y118.382 E26.29483
G1 X79.629 Y115.774 E26.44044
G1 X80.039 Y113.186 E26.58606
G1 X80.610 Y110.630 E26.73167
G1 X81.341 Y108.114 E26.87729
G1 X82.228 Y105.649 E27.02290
G1 X83.269 Y103.245 E27.16852
G1 X84.458 Y100.911 E27.31413
G1 X85.792 Y98.656 E27.45975
G1 X87.264 Y96.489 E27.60536
G1 X88.870 Y94.420 E27.75098
G1 X90.602 Y92.454 E27.89659
G1 X92.454 Y90.602 E28.04221
G1 X94.420 Y88.870 E28.18782
G1 X96.489 Y87.264 E28.33343
G1 X98.656 Y85.792 E28.47905
G1 X100.911 Y84.458 E28.62466
G1 X103.245 Y83.269 E28.77028
G1 X105.649 Y82.228 E28.91589
G1 X108.114 Y81.341 E29.06151
G1 X110.630 Y80.610 E29.20712
G1 X113.186 Y80.039 E29.35274
G1 X115.774 Y79.629 E29.49835
G1 X118.382 Y79.382 E29.64397
G1 X120.700 Y79.310 E29.77290
G1 X120.700 Y120.640 E32.07028
G1 X120.354 Y120.500 F3000.000
G1 X111.741 Y113.318 F3000.000
G1 X118.182 Y119.759 E32.57657 F1080.000
G1 X117.393 Y119.759 E32.62042
G1 X111.741 Y114.107 E33.06471
G1 X111.741 Y114.896 E33.10855
G1 X116.604 Y119.759 E33.49084
G1 X115.815 Y119.759 E33.53468
G1 X111.741 Y115.685 E33.85496
G1 X111.741 Y116.473 E33.89881
G1 X115.027 Y119.759 E34.15709
G1 X114.238 Y119.759 E34.20093
G1 X111.741 Y117.262 E34.39720
G1 X111.741 Y118.051 E34.44105
G1 X113.449 Y119.759 E34.57532
G1 X112.660 Y119.759 E34.61916
G1 X111.741 Y118.840 E34.69143
G1 X111.067 Y118.955 E34.72942
G1 X111.871 Y119.759 E34.79263
G1 X111.083 Y119.759 E34.83648
G1 X110.279 Y118.955 E34.89969
G1 X109.490 Y118.955 E34.94354
G1 X110.294 Y119.759 E35.00675
G1 X109.505 Y119.759 E35.05060
G1 X108.701 Y118.955 E35.11381
G1 X107.912 Y118.955 E35.15766
G1 X108.716 Y119.759 E35.22087
G1 X107.928 Y119.759 E35.26472
G1 X107.124 Y118.955 E35.32793
G1 X106.335 Y118.955 E35.37178
G1 X107.139 Y119.759 E35.43499
G1 X106.350 Y119.759 E35.47884
G1 X105.546 Y118.955 E35.54205
G1 X104.757 Y118.955 E35.58590
G1 X105.561 Y119.759 E35.64911
G1 X104.773 Y119.759 E35.69296
G1 X103.968 Y118.955 E35.75617
G1 X103.180 Y118.955 E35.80002
G1 X103.984 Y119.759 E35.86323
G1 X103.195 Y119.759 E35.90708
G1 X102.391 Y118.955 E35.97029
G1 X101.602 Y118.955 E36.01414
G1 X102.406 Y119.759 E36.07735
G1 X101.618 Y119.759 E36.12120
G1 X100.813 Y118.955 E36.18441
G1 X100.025 Y118.955 E36.22826
G1 X100.829 Y119.759 E36.29148
G1 X100.040 Y119.759 E36.33532
G1 X99.236 Y118.955 E36.39854
G1 X98.447 Y118.955 E36.44238
G1 X99.251 Y119.759 E36.50560
G1 X98.463 Y119.759 E36.54944
G1 X97.658 Y118.955 E36.61266
G1 X96.870 Y118.955 E36.65650
G1 X97.674 Y119.759 E36.71972
G1 X96.885 Y119.759 E36.76356
G1 X96.081 Y118.955 E36.82678
G1 X95.292 Y118.955 E36.87062
G1 X96.096 Y119.759 E36.93384
G1 X95.308 Y119.759 E36.97768
G1 X94.503 Y118.955 E37.04090
G1 X93.715 Y118.955 E37.08474
G1 X94.519 Y119.759 E37.14796
G1 X93.730 Y119.759 E37.19180
G1 X92.926 Y118.955 E37.25502
G1 X92.137 Y118.955 E37.29886
G1 X92.941 Y119.759 E37.36208
G1 X92.153 Y119.759 E37.40592
G1 X91.348 Y118.955 E37.46914
G1 X90.560 Y118.955 E37.51298
G1 X91.364 Y119.759 E37.57620
G1 X90.575 Y119.759 E37.62004
G1 X89.771 Y118.955 E37.68326
G1 X88.982 Y118.955 E37.72710
G1 X89.786 Y119.759 E37.79032
G1 X88.998 Y119.759 E37.83416
G1 X81.263 Y112.024 E38.44220
G1 X81.119 Y112.669 E38.47892
G1 X88.209 Y119.759 E39.03628
G1 X87.420 Y119.759 E39.08012
G1 X80.974 Y113.314 E39.58680
G1 X80.864 Y113.992 E39.62500
G1 X86.631 Y119.759 E40.07837
G1 X85.842 Y119.759 E40.12221
G1 X80.756 Y114.673 E40.52206
G1 X80.648 Y115.354 E40.56038
G1 X85.054 Y119.759 E40.90670
G1 X84.265 Y119.759 E40.95055
G1 X80.549 Y116.043 E41.24269
G1 X80.481 Y116.763 E41.28292
G1 X83.476 Y119.759 E41.51841
G1 X82.687 Y119.759 E41.56225
G1 X80.412 Y117.484 E41.74110
G1 X80.344 Y118.205 E41.78133
G1 X81.899 Y119.759 E41.90352
G1 X81.110 Y119.759 E41.94737
G1 X80.306 Y118.955 E42.01058
G1 X80.282 Y119.720 E42.05311
G1 X80.321 Y119.759 E42.05620
G1 X88.259 Y118.232 F3000.000
G1 X81.407 Y111.380 E42.59486 F1080.000
G1 X81.558 Y110.742 E42.63130
G1 X88.259 Y117.443 E43.15811
G1 X88.259 Y116.654 E43.20195
G1 X81.735 Y110.130 E43.71479
G1 X81.913 Y109.519 E43.75017
G1 X88.259 Y115.866 E44.24906
G1 X88.259 Y115.077 E44.29290
G1 X82.090 Y108.908 E44.77783
G1 X82.273 Y108.302 E44.81300
G1 X88.259 Y114.288 E45.28354
G1 X88.259 Y113.499 E45.32738
G1 X82.482 Y107.722 E45.78151
G1 X82.691 Y107.142 E45.81577
G1 X88.259 Y112.711 E46.25348
G1 X88.890 Y112.553 E46.28964
G1 X82.900 Y106.562 E46.76056
G1 X83.109 Y105.983 E46.79480
G1 X89.679 Y112.553 E47.31125
G1 X90.468 Y112.553 E47.35509
G1 X83.347 Y105.433 E47.91482
G1 X83.586 Y104.882 E47.94816
G1 X91.257 Y112.553 E48.55117
G1 X92.045 Y112.553 E48.59501
G1 X83.824 Y104.332 E49.24130
G1 X84.062 Y103.781 E49.27464
G1 X92.834 Y112.553 E49.96420
G1 X93.623 Y112.553 E50.00804
G1 X84.322 Y103.252 E50.73922
G1 X84.588 Y102.729 E50.77181
G1 X94.412 Y112.553 E51.54406
G1 X95.200 Y112.553 E51.58791
G1 X84.854 Y102.207 E52.40123
G1 X88.941 Y103.927 F3000.000
G1 X85.690 Y100.676 E52.65677 F1080.000
G1 X85.983 Y100.181 E52.68877
G1 X88.600 Y102.798 E52.89448
G1 X88.408 Y101.817 E52.95003
G1 X86.276 Y99.685 E53.11761
G1 X86.569 Y99.189 E53.14962
G1 X88.299 Y100.919 E53.28556
G1 X88.261 Y100.093 E53.33154
G1 X86.887 Y98.718 E53.43957
G1 X87.206 Y98.249 E53.47113
G1 X88.280 Y99.322 E53.55553
G1 X88.344 Y98.598 E53.59594
G1 X87.525 Y97.779 E53.66033
G1 X87.844 Y97.310 E53.69189
G1 X88.448 Y97.914 E53.73937
G1 X88.586 Y97.263 E53.77634
G1 X88.175 Y96.851 E53.80872
G1 X88.519 Y96.407 E53.83997
G1 X88.755 Y96.642 E53.85848
G1 X89.539 Y105.314 F3000.000
G1 X85.397 Y101.172 E54.18407 F1080.000
G1 X85.120 Y101.684 E54.21643
G1 X91.195 Y107.759 E54.69398
G1 X92.241 Y108.805 F3000.000
G1 X95.989 Y112.553 E54.98863 F1080.000
G1 X96.778 Y112.553 E55.03247
G1 X94.691 Y110.466 E55.19650
G1 X96.073 Y111.059 F3000.000
G1 X97.567 Y112.553 E55.31392 F1080.000
G1 X98.355 Y112.553 E55.35776
G1 X97.202 Y111.400 E55.44839
G1 X98.186 Y111.595 E55.50412
G1 X99.144 Y112.553 E55.57945
G1 X99.933 Y112.553 E55.62329
G1 X99.080 Y111.700 E55.69034
G1 X99.907 Y111.739 E55.73638
G1 X100.722 Y112.553 E55.80040
G1 X101.510 Y112.553 E55.84424
G1 X100.678 Y111.720 E55.90970
G1 X101.401 Y111.655 E55.95009
G1 X102.299 Y112.553 E56.02067
G1 X103.088 Y112.553 E56.06451
G1 X102.086 Y111.551 E56.14328
G1 X102.737 Y111.414 E56.18027
G1 X103.877 Y112.553 E56.26985
G1 X104.665 Y112.553 E56.31369
G1 X103.358 Y111.245 E56.41648
G1 X103.952 Y111.050 E56.45122
G1 X105.454 Y112.553 E56.56933
G1 X106.243 Y112.553 E56.61317
G1 X104.521 Y110.831 E56.74853
G1 X105.068 Y110.589 E56.78177
G1 X107.032 Y112.553 E56.93615
G1 X107.820 Y112.553 E56.97999
G1 X105.590 Y110.323 E57.15530
G1 X106.089 Y110.033 E57.18737
G1 X108.609 Y112.553 E57.38546
G1 X109.398 Y112.553 E57.42930
G1 X106.570 Y109.725 E57.65163
