; generated by Slic3r 1.1.7 on 2015-01-06 at 23:21:49

; perimeters extrusion width = 0.40mm
; infill extrusion width = 0.42mm
; solid infill extrusion width = 0.42mm
; top infill extrusion width = 0.42mm

G21 ; set units to millimeters
M107
M104 S280 ; set temperature

M109 S280 ; wait for temperature to be reached
G90 ; use absolute coordinates
G92 E0
M82 ; use absolute distances for extrusion
G1 F1800.000 E-0.50000
G92 E0
G1 Z0.300 F3000.000
G1 X118.434 Y71.980 F3000.000
G1 E0.50000 F1800.000
G1 X120.184 Y70.516 E0.62682 F1080.000
G1 X123.451 Y69.644 E0.81478
G1 X161.549 Y69.644 E2.93247
G1 X163.796 Y70.041 E3.05929
G1 X165.770 Y71.184 E3.18612 F1080.000
G1 X167.234 Y72.934 E3.31294
G1 X168.106 Y76.201 E3.50090
G1 X168.106 Y114.299 E5.61858
G1 X167.709 Y116.546 E5.74541
G1 X166.566 Y118.520 E5.87223
G1 X164.816 Y119.984 E5.99905
G1 X161.549 Y120.856 E6.18701
G1 X123.451 Y120.856 E8.30470
G1 X121.204 Y120.459 E8.43152
G1 X119.230 Y119.316 E8.55835
G1 X117.766 Y117.566 E8.68517
G1 X116.894 Y114.299 E8.87313
G1 X116.894 Y76.201 E10.99081
G1 X117.291 Y73.954 E11.11764
G1 X118.404 Y72.032 E11.24113
G1 F1800.000 E10.74113
G92 E0
G1 X158.596 Y111.346 F3000.000
G1 E0.50000 F1800.000
G1 X126.404 Y111.346 E2.28943 F540.000
G1 X126.404 Y79.155 E4.07880
G1 X158.596 Y79.155 E5.86823
G1 X158.596 Y111.286 E7.65426
G1 X158.039 Y110.789 F3000.000
G1 X126.961 Y110.789 E9.38176 F378.000
G1 X126.961 Y79.712 E11.10920
G1 X158.039 Y79.712 E12.83670
G1 X158.039 Y110.729 E14.56080
G1 X158.039 Y111.189 F3000.000
G1 X160.692 Y113.442 F3000.000
G1 X124.308 Y113.442 E16.58320 F540.000
G1 X124.308 Y77.058 E18.60561
G1 X160.692 Y77.058 E20.62801
G1 X160.692 Y113.382 E22.64708
G1 X161.249 Y113.999 F3000.000
G1 X123.751 Y113.999 E24.73141 F378.000
G1 X123.751 Y76.501 E26.81575
G1 X161.249 Y76.501 E28.90008
G1 X161.249 Y113.939 E30.98108
G1 X160.902 Y113.799 F3000.000
G1 X158.980 Y79.316 F3000.000
G1 X160.308 Y80.644 E31.08547 F1080.000
G1 X160.308 Y81.435 E31.12941
G1 X158.980 Y80.107 E31.23380
G1 X158.980 Y80.898 E31.27774
G1 X160.308 Y82.226 E31.38213
G1 X160.308 Y83.016 E31.42607
G1 X158.980 Y81.688 E31.53046
G1 X158.980 Y82.479 E31.57440
G1 X160.308 Y83.807 E31.67879
G1 X160.308 Y84.597 E31.72273
G1 X158.980 Y83.269 E31.82712
G1 X158.980 Y84.060 E31.87106
G1 X160.308 Y85.388 E31.97545
G1 X160.308 Y86.178 E32.01939
G1 X158.980 Y84.851 E32.12378
G1 X158.980 Y85.641 E32.16772
G1 X160.308 Y86.969 E32.27211
G1 X160.308 Y87.760 E32.31605
G1 X158.980 Y86.432 E32.42044
G1 X158.980 Y87.222 E32.46438
G1 X160.308 Y88.550 E32.56877
G1 X160.308 Y89.341 E32.61271
G1 X158.980 Y88.013 E32.71710
G1 X158.980 Y88.803 E32.76104
G1 X160.308 Y90.131 E32.86543
G1 X160.308 Y90.922 E32.90937
G1 X158.980 Y89.594 E33.01376
G1 X158.980 Y90.385 E33.05770
G1 X160.308 Y91.712 E33.16209
G1 X160.308 Y92.503 E33.20603
G1 X158.980 Y91.175 E33.31042
G1 X158.980 Y91.966 E33.35436
G1 X160.308 Y93.294 E33.45875
G1 X160.308 Y94.084 E33.50269
G1 X158.980 Y92.756 E33.60708
G1 X158.980 Y93.547 E33.65102
G1 X160.308 Y94.875 E33.75541
G1 X160.308 Y95.665 E33.79935
G1 X158.980 Y94.337 E33.90374
G1 X158.980 Y95.128 E33.94768
G1 X160.308 Y96.456 E34.05207
G1 X160.308 Y97.246 E34.09601
G1 X158.980 Y95.919 E34.20040
G1 X158.980 Y96.709 E34.24434
G1 X160.308 Y98.037 E34.34873
G1 X160.308 Y98.828 E34.39267
G1 X158.980 Y97.500 E34.49706
G1 X158.980 Y98.290 E34.54100
G1 X160.308 Y99.618 E34.64539
G1 X160.308 Y100.409 E34.68933
G1 X158.980 Y99.081 E34.79372
G1 X158.980 Y99.871 E34.83767
G1 X160.308 Y101.199 E34.94205
G1 X160.308 Y101.990 E34.98600
G1 X158.980 Y100.662 E35.09038
G1 X158.980 Y101.453 E35.13433
G1 X160.308 Y102.780 E35.23871
G1 X160.308 Y103.571 E35.28266
G1 X158.980 Y102.243 E35.38704
G1 X158.980 Y103.034 E35.43099
G1 X160.308 Y104.362 E35.53537
G1 X160.308 Y105.152 E35.57932
G1 X158.980 Y103.824 E35.68370
G1 X158.980 Y104.615 E35.72765
G1 X160.308 Y105.943 E35.83203
G1 X160.308 Y106.733 E35.87598
G1 X158.980 Y105.405 E35.98036
G1 X158.980 Y106.196 E36.02431
G1 X160.308 Y107.524 E36.12869
G1 X160.308 Y108.314 E36.17264
G1 X158.980 Y106.987 E36.27702
G1 X158.980 Y107.777 E36.32097
G1 X160.308 Y109.105 E36.42535
G1 X160.308 Y109.896 E36.46930
G1 X158.980 Y108.568 E36.57368
G1 X158.980 Y109.358 E36.61763
G1 X160.308 Y110.686 E36.72201
G1 X160.308 Y111.477 E36.76596
G1 X158.980 Y110.149 E36.87034
G1 X158.980 Y110.939 E36.91429
G1 X160.308 Y112.267 E37.01867
G1 X160.288 Y113.038 E37.06152
G1 X158.980 Y111.730 E37.16433
G1 X158.190 Y111.730 E37.20827
G1 X159.517 Y113.058 E37.31264
G1 X158.727 Y113.058 E37.35659
G1 X157.399 Y111.730 E37.46096
G1 X156.608 Y111.730 E37.50491
G1 X157.936 Y113.058 E37.60928
G1 X157.146 Y113.058 E37.65323
G1 X155.818 Y111.730 E37.75760
G1 X155.027 Y111.730 E37.80154
G1 X156.355 Y113.058 E37.90592
G1 X155.564 Y113.058 E37.94986
G1 X154.237 Y111.730 E38.05424
G1 X153.446 Y111.730 E38.09818
G1 X154.774 Y113.058 E38.20256
G1 X153.983 Y113.058 E38.24650
G1 X152.656 Y111.730 E38.35088
G1 X151.865 Y111.730 E38.39482
G1 X153.193 Y113.058 E38.49919
G1 X152.402 Y113.058 E38.54314
G1 X151.074 Y111.730 E38.64751
G1 X150.284 Y111.730 E38.69146
G1 X151.612 Y113.058 E38.79583
G1 X150.821 Y113.058 E38.83978
G1 X149.493 Y111.730 E38.94415
G1 X148.703 Y111.730 E38.98810
G1 X150.030 Y113.058 E39.09247
G1 X149.240 Y113.058 E39.13641
G1 X147.912 Y111.730 E39.24079
G1 X147.122 Y111.730 E39.28473
G1 X148.449 Y113.058 E39.38911
G1 X147.659 Y113.058 E39.43305
G1 X146.331 Y111.730 E39.53743
G1 X145.540 Y111.730 E39.58137
G1 X146.868 Y113.058 E39.68575
G1 X146.078 Y113.058 E39.72969
G1 X144.750 Y111.730 E39.83406
G1 X143.959 Y111.730 E39.87801
G1 X145.287 Y113.058 E39.98238
G1 X144.496 Y113.058 E40.02633
G1 X143.169 Y111.730 E40.13070
G1 X142.378 Y111.730 E40.17465
G1 X143.706 Y113.058 E40.27902
G1 X142.915 Y113.058 E40.32297
G1 X141.588 Y111.730 E40.42734
G1 X140.797 Y111.730 E40.47128
G1 X142.125 Y113.058 E40.57566
G1 X141.334 Y113.058 E40.61960
G1 X140.006 Y111.730 E40.72398
G1 X139.216 Y111.730 E40.76792
G1 X140.544 Y113.058 E40.87230
G1 X139.753 Y113.058 E40.91624
G1 X138.425 Y111.730 E41.02062
G1 X137.635 Y111.730 E41.06456
G1 X138.962 Y113.058 E41.16893
G1 X138.172 Y113.058 E41.21288
G1 X136.844 Y111.730 E41.31725
G1 X136.054 Y111.730 E41.36120
G1 X137.381 Y113.058 E41.46557
G1 X136.591 Y113.058 E41.50952
G1 X135.263 Y111.730 E41.61389
G1 X134.472 Y111.730 E41.65784
G1 X135.800 Y113.058 E41.76221
G1 X135.010 Y113.058 E41.80615
G1 X133.682 Y111.730 E41.91053
G1 X132.891 Y111.730 E41.95447
G1 X134.219 Y113.058 E42.05885
G1 X133.428 Y113.058 E42.10279
G1 X132.101 Y111.730 E42.20717
G1 X131.310 Y111.730 E42.25111
G1 X132.638 Y113.058 E42.35549
G1 X131.847 Y113.058 E42.39943
G1 X130.520 Y111.730 E42.50380
G1 X129.729 Y111.730 E42.54775
G1 X131.057 Y113.058 E42.65212
G1 X130.266 Y113.058 E42.69607
G1 X128.938 Y111.730 E42.80044
G1 X128.148 Y111.730 E42.84439
G1 X129.476 Y113.058 E42.94876
G1 X128.685 Y113.058 E42.99271
G1 X127.357 Y111.730 E43.09708
G1 X126.567 Y111.730 E43.14102
G1 X127.894 Y113.058 E43.24540
G1 X127.104 Y113.058 E43.28934
G1 X124.692 Y110.646 E43.47893
G1 X124.692 Y111.437 E43.52287
G1 X126.313 Y113.058 E43.65031
G1 X125.523 Y113.058 E43.69426
G1 X124.692 Y112.227 E43.75955
G1 X124.692 Y113.018 E43.80349
G1 X124.732 Y113.058 E43.80664
G1 X126.020 Y111.184 F3000.000
G1 X124.692 Y109.856 E43.91102 F1080.000
G1 X124.692 Y109.065 E43.95497
G1 X126.020 Y110.393 E44.05935
G1 X126.020 Y109.602 E44.10330
G1 X124.692 Y108.274 E44.20768
G1 X124.692 Y107.484 E44.25163
G1 X126.020 Y108.812 E44.35601
G1 X126.020 Y108.021 E44.39996
G1 X124.692 Y106.693 E44.50434
G1 X124.692 Y105.903 E44.54829
G1 X126.020 Y107.231 E44.65267
G1 X126.020 Y106.440 E44.69662
G1 X124.692 Y105.112 E44.80100
G1 X124.692 Y104.322 E44.84495
G1 X126.020 Y105.649 E44.94933
G1 X126.020 Y104.859 E44.99328
G1 X124.692 Y103.531 E45.09766
G1 X124.692 Y102.740 E45.14161
G1 X126.020 Y104.068 E45.24599
G1 X126.020 Y103.278 E45.28994
G1 X124.692 Y101.950 E45.39432
G1 X124.692 Y101.159 E45.43827
G1 X126.020 Y102.487 E45.54265
G1 X126.020 Y101.697 E45.58660
G1 X124.692 Y100.369 E45.69098
G1 X124.692 Y99.578 E45.73493
G1 X126.020 Y100.906 E45.83931
G1 X126.020 Y100.115 E45.88326
G1 X124.692 Y98.788 E45.98764
G1 X124.692 Y97.997 E46.03159
G1 X126.020 Y99.325 E46.13598
G1 X126.020 Y98.534 E46.17992
G1 X124.692 Y97.206 E46.28431
G1 X124.692 Y96.416 E46.32825
G1 X126.020 Y97.744 E46.43264
G1 X126.020 Y96.953 E46.47658
G1 X124.692 Y95.625 E46.58097
G1 X124.692 Y94.835 E46.62491
G1 X126.020 Y96.163 E46.72930
G1 X126.020 Y95.372 E46.77324
G1 X124.692 Y94.044 E46.87763
G1 X124.692 Y93.254 E46.92157
G1 X126.020 Y94.581 E47.02596
G1 X126.020 Y93.791 E47.06990
G1 X124.692 Y92.463 E47.17429
G1 X124.692 Y91.672 E47.21823
G1 X126.020 Y93.000 E47.32262
G1 X126.020 Y92.210 E47.36656
G1 X124.692 Y90.882 E47.47095
G1 X124.692 Y90.091 E47.51489
G1 X126.020 Y91.419 E47.61928
G1 X126.020 Y90.629 E47.66322
G1 X124.692 Y89.301 E47.76761
G1 X124.692 Y88.510 E47.81155
G1 X126.020 Y89.838 E47.91594
G1 X126.020 Y89.047 E47.95988
G1 X124.692 Y87.720 E48.06427
G1 X124.692 Y86.929 E48.10821
G1 X126.020 Y88.257 E48.21260
G1 X126.020 Y87.466 E48.25654
G1 X124.692 Y86.138 E48.36093
G1 X124.692 Y85.348 E48.40487
G1 X126.020 Y86.676 E48.50926
G1 X126.020 Y85.885 E48.55320
G1 X124.692 Y84.557 E48.65759
G1 X124.692 Y83.767 E48.70153
G1 X126.020 Y85.095 E48.80592
G1 X126.020 Y84.304 E48.84986
G1 X124.692 Y82.976 E48.95425
G1 X124.692 Y82.186 E48.99819
G1 X126.020 Y83.513 E49.10258
G1 X126.020 Y82.723 E49.14652
G1 X124.692 Y81.395 E49.25091
G1 X124.692 Y80.604 E49.29485
G1 X126.020 Y81.932 E49.39924
G1 X126.020 Y81.142 E49.44318
G1 X124.692 Y79.814 E49.54757
G1 X124.692 Y79.023 E49.59151
G1 X126.020 Y80.351 E49.69590
G1 X126.020 Y79.561 E49.73984
G1 X124.692 Y78.233 E49.84423
G1 X124.712 Y77.462 E49.88708
G1 X126.021 Y78.771 E49.98999
G1 X126.812 Y78.771 E50.03393
G1 X125.483 Y77.442 E50.13842
G1 X126.273 Y77.442 E50.18237
G1 X127.602 Y78.771 E50.28685
G1 X128.393 Y78.771 E50.33080
G1 X127.064 Y77.442 E50.43528
G1 X127.854 Y77.442 E50.47923
G1 X129.184 Y78.771 E50.58371
G1 X129.974 Y78.771 E50.62766
G1 X128.645 Y77.442 E50.73214
G1 X129.436 Y77.442 E50.77609
G1 X130.765 Y78.771 E50.88057
G1 X131.555 Y78.771 E50.92452
G1 X130.226 Y77.442 E51.02900
G1 X131.017 Y77.442 E51.07295
G1 X132.346 Y78.771 E51.17743
G1 X133.136 Y78.771 E51.22138
G1 X131.807 Y77.442 E51.32586
G1 X132.598 Y77.442 E51.36981
G1 X133.927 Y78.771 E51.47429
G1 X134.718 Y78.771 E51.51824
G1 X133.388 Y77.442 E51.62272
G1 X134.179 Y77.442 E51.66667
G1 X135.508 Y78.771 E51.77115
G1 X136.299 Y78.771 E51.81510
G1 X134.970 Y77.442 E51.91958
G1 X135.760 Y77.442 E51.96353
G1 X137.089 Y78.771 E52.06801
G1 X137.880 Y78.771 E52.11196
G1 X136.551 Y77.442 E52.21644
G1 X137.341 Y77.442 E52.26039
G1 X138.670 Y78.771 E52.36487
G1 X139.461 Y78.771 E52.40882
G1 X138.132 Y77.442 E52.51330
G1 X138.922 Y77.442 E52.55725
G1 X140.252 Y78.771 E52.66173
G1 X141.042 Y78.771 E52.70568
G1 X139.713 Y77.442 E52.81016
G1 X140.504 Y77.442 E52.85411
G1 X141.833 Y78.771 E52.95859
G1 X142.623 Y78.771 E53.00254
G1 X141.294 Y77.442 E53.10702
G1 X142.085 Y77.442 E53.15097
G1 X143.414 Y78.771 E53.25545
G1 X144.204 Y78.771 E53.29940
G1 X142.875 Y77.442 E53.40388
G1 X143.666 Y77.442 E53.44783
G1 X144.995 Y78.771 E53.55231
G1 X145.786 Y78.771 E53.59626
G1 X144.456 Y77.442 E53.70075
G1 X145.247 Y77.442 E53.74469
G1 X146.576 Y78.771 E53.84918
G1 X147.367 Y78.771 E53.89312
G1 X146.038 Y77.442 E53.99761
G1 X146.828 Y77.442 E54.04155
G1 X148.157 Y78.771 E54.14604
G1 X148.948 Y78.771 E54.18998
G1 X147.619 Y77.442 E54.29447
G1 X148.409 Y77.442 E54.33841
G1 X149.738 Y78.771 E54.44290
G1 X150.529 Y78.771 E54.48684
G1 X149.200 Y77.442 E54.59133
G1 X149.990 Y77.442 E54.63527
G1 X151.320 Y78.771 E54.73976
G1 X152.110 Y78.771 E54.78370
G1 X150.781 Y77.442 E54.88819
G1 X151.572 Y77.442 E54.93213
G1 X152.901 Y78.771 E55.03662
G1 X153.691 Y78.771 E55.08056
G1 X152.362 Y77.442 E55.18505
G1 X153.153 Y77.442 E55.22899
G1 X154.482 Y78.771 E55.33348
G1 X155.272 Y78.771 E55.37742
G1 X153.943 Y77.442 E55.48191
G1 X154.734 Y77.442 E55.52585
G1 X156.063 Y78.771 E55.63034
G1 X156.854 Y78.771 E55.67428
G1 X155.524 Y77.442 E55.77877
G1 X156.315 Y77.442 E55.82271
G1 X157.644 Y78.771 E55.92720
G1 X158.435 Y78.771 F3000.000
G1 X157.106 Y77.442 E56.03168 F1080.000
G1 X157.896 Y77.442 E56.07563
G1 X160.308 Y79.854 E56.26521
G1 X160.308 Y79.063 E56.30916
G1 X158.687 Y77.442 E56.43660
G1 X159.477 Y77.442 E56.48054
G1 X160.308 Y78.273 E56.54583
G1 X160.308 Y77.482 E56.58978
G1 X160.268 Y77.442 E56.59292
M106 S223
G1 F1800.000 E56.09292
G92 E0
G1 Z0.600 F3000.000
G1 X158.339 Y111.089 F3000.000
G1 E0.50000 F1800.000
G1 X126.661 Y111.089 E1.76434 F1800.000
G1 X126.661 Y79.412 E3.02864
G1 X158.339 Y79.412 E4.29299
G1 X158.339 Y111.029 E5.55489
G1 X157.939 Y110.689 F3000.000
G1 X127.061 Y110.689 E6.78731 F1260.000
G1 X127.061 Y79.812 E8.01968
G1 X157.939 Y79.812 E9.25209
G1 X157.939 Y110.629 E10.48207
G1 X157.939 Y111.089 F3000.000
G1 X160.949 Y113.699 F3000.000
G1 X124.051 Y113.699 E11.95473 F1800.000
G1 X124.051 Y76.801 E13.42740
G1 X160.949 Y76.801 E14.90007
G1 X160.949 Y113.639 E16.37034
G1 X161.349 Y114.099 F3000.000
G1 X123.651 Y114.099 E17.87494 F1260.000
G1 X123.651 Y76.401 E19.37954
G1 X161.349 Y76.401 E20.88413
G1 X161.349 Y114.039 E22.38634
G1 X161.002 Y113.899 F3000.000
G1 X160.675 Y113.385 F3000.000
G1 X160.635 Y113.425 E22.38870 F3600.000
G1 X160.039 Y113.425 E22.41358
G1 X160.675 Y112.789 E22.45113
G1 X160.675 Y112.194 E22.47601
G1 X159.444 Y113.425 E22.54874
G1 X158.849 Y113.425 E22.57362
G1 X160.675 Y111.599 E22.68153
G1 X160.675 Y111.004 E22.70641
G1 X158.254 Y113.425 E22.84951
G1 X157.658 Y113.425 E22.87438
G1 X160.675 Y110.408 E23.05267
G1 X160.675 Y109.813 E23.07754
G1 X157.063 Y113.425 E23.29101
G1 X156.468 Y113.425 E23.31589
G1 X160.675 Y109.218 E23.56453
G1 X160.675 Y108.623 E23.58941
G1 X158.613 Y110.684 E23.71125
G1 X158.613 Y110.089 E23.73613
G1 X160.675 Y108.028 E23.85797
G1 X160.675 Y107.432 E23.88285
G1 X158.613 Y109.494 E24.00469
G1 X158.613 Y108.898 E24.02957
G1 X160.675 Y106.837 E24.15141
G1 X160.675 Y106.242 E24.17629
G1 X158.613 Y108.303 E24.29813
G1 X158.613 Y107.708 E24.32301
G1 X160.675 Y105.647 E24.44485
G1 X160.675 Y105.051 E24.46973
G1 X158.613 Y107.113 E24.59157
G1 X158.613 Y106.517 E24.61645
G1 X160.675 Y104.456 E24.73829
G1 X160.675 Y103.861 E24.76317
G1 X158.613 Y105.922 E24.88501
G1 X158.613 Y105.327 E24.90989
G1 X160.675 Y103.266 E25.03173
G1 X160.675 Y102.670 E25.05661
G1 X158.613 Y104.732 E25.17845
G1 X158.613 Y104.137 E25.20333
G1 X160.675 Y102.075 E25.32517
G1 X160.675 Y101.480 E25.35005
G1 X158.613 Y103.541 E25.47189
G1 X158.613 Y102.946 E25.49677
G1 X160.675 Y100.885 E25.61861
G1 X160.675 Y100.289 E25.64349
G1 X158.613 Y102.351 E25.76533
G1 X158.613 Y101.756 E25.79021
G1 X160.675 Y99.694 E25.91205
G1 X160.675 Y99.099 E25.93693
G1 X158.613 Y101.160 E26.05877
G1 X158.613 Y100.565 E26.08365
G1 X160.675 Y98.504 E26.20549
G1 X160.675 Y97.909 E26.23036
G1 X158.613 Y99.970 E26.35221
G1 X158.613 Y99.375 E26.37708
G1 X160.675 Y97.313 E26.49893
G1 X160.675 Y96.718 E26.52380
G1 X158.613 Y98.779 E26.64565
G1 X158.613 Y98.184 E26.67052
G1 X160.675 Y96.123 E26.79237
G1 X160.675 Y95.528 E26.81724
G1 X158.613 Y97.589 E26.93908
G1 X158.613 Y96.994 E26.96396
G1 X160.675 Y94.932 E27.08580
G1 X160.675 Y94.337 E27.11068
G1 X158.613 Y96.398 E27.23252
G1 X158.613 Y95.803 E27.25740
G1 X160.675 Y93.742 E27.37924
G1 X160.675 Y93.147 E27.40412
G1 X158.613 Y95.208 E27.52596
G1 X158.613 Y94.613 E27.55084
G1 X160.675 Y92.551 E27.67268
G1 X160.675 Y91.956 E27.69756
G1 X158.613 Y94.018 E27.81940
G1 X158.613 Y93.422 E27.84428
G1 X160.675 Y91.361 E27.96612
G1 X160.675 Y90.766 E27.99100
G1 X158.613 Y92.827 E28.11284
G1 X158.613 Y92.232 E28.13772
G1 X160.675 Y90.171 E28.25956
G1 X160.675 Y89.575 E28.28444
G1 X158.613 Y91.637 E28.40628
G1 X158.613 Y91.041 E28.43116
G1 X160.675 Y88.980 E28.55300
G1 X160.675 Y88.385 E28.57788
G1 X158.613 Y90.446 E28.69972
G1 X158.613 Y89.851 E28.72460
G1 X160.675 Y87.790 E28.84644
